CX996/cx_moveit2/ws_moveit/src/cr7_robot_controller/data/optimized_trajectory_20260126_184616.csv
index,time_from_start,position_0(joint1),position_1(joint2),position_2(joint3),position_3(joint4),position_4(joint5),position_5(joint6),velocity_0,velocity_1,velocity_2,velocity_3,velocity_4,velocity_5,acceleration_0,acceleration_1,acceleration_2,acceleration_3,acceleration_4,acceleration_5
0,0,-0.259921,-0.500757,-1.2328,0.359061,-0.698559,-2.02998,-0,0,-0,0,0,0,0,0,0,0,0,0
1,0.1,-0.261453,-0.498811,-1.2378,0.362652,-0.697434,-2.02874,-0.0306285,0.0389183,-0.1,0.0718149,0.0224982,0.0248992,-0.306285,0.389183,-1,0.718149,0.224982,0.248992
2,0.2,-0.266071,-0.492988,-1.2528,0.373451,-0.694045,-2.02497,-0.0619135,0.077431,-0.199995,0.144413,0.0453744,0.0506993,-0.317692,0.381209,-0.999987,0.734584,0.231864,0.267683
3,0.3,-0.273878,-0.483355,-1.2778,0.391596,-0.688334,-2.01853,-0.0944997,0.115028,-0.299987,0.218866,0.0690126,0.0785923,-0.333074,0.36947,-0.999912,0.758723,0.24091,0.294656
4,0.4,-0.285035,-0.470031,-1.3128,0.417322,-0.680207,-2.00915,-0.12905,0.151167,-0.399976,0.296205,0.0937341,0.109667,-0.359972,0.352421,-0.999967,0.789193,0.254274,0.327899
5,0.5,-0.299769,-0.453194,-1.3578,0.450985,-0.669544,-1.99644,-0.166146,0.185133,-0.49996,0.377864,0.119772,0.145346,-0.389739,0.326871,-0.999877,0.838664,0.268792,0.379883
6,0.6,-0.31836,-0.433109,-1.41279,0.49311,-0.656207,-1.97986,-0.206238,0.215956,-0.599938,0.465854,0.147211,0.187499,-0.424216,0.289424,-0.999925,0.912147,0.283053,0.452927
7,0.7,-0.34111,-0.410153,-1.47773,0.544379,-0.640073,-1.9587,-0.249269,0.241169,-0.697146,0.560793,0.175457,0.237654,-0.466008,0.132226,-0.851629,1.00007,0.283229,0.605546
8,0.8,-0.368167,-0.385113,-1.55194,0.60533,-0.621185,-1.93217,-0.291916,0.257315,-0.784362,0.65905,0.201893,0.294755,-0.429979,-0.0344442,-0.628451,1.00009,0.231541,0.687247
9,0.9,-0.399398,-0.359092,-1.6341,0.676235,-0.599828,-1.89954,-0.331986,0.260916,-0.855905,0.759058,0.224382,0.358755,-0.391112,0.143836,-0.854425,1.00002,0.237091,0.577591
10,1,-0.434373,-0.333525,-1.72232,0.757142,-0.576544,-1.86018,-0.366671,0.249028,-0.906666,0.85907,0.240454,0.4287,-0.363732,0.0395493,-0.71874,1.00015,0.196964,0.613857
11,1.1,-0.472437,-0.310052,-1.8144,0.848048,-0.552075,-1.81354,-0.392275,0.217402,-0.929409,0.956673,0.246905,0.503287,0.33339,-0.441881,1.00045,-0.624437,-0.269751,-0.214916
12,1.2,-0.510276,-0.291436,-1.90239,0.942541,-0.528795,-1.76274,-0.36383,0.154712,-0.829996,0.933071,0.218199,0.512157,0.263745,-0.815664,1.00009,0.14811,-0.320882,0.380015
13,1.3,-0.545015,-0.278858,-1.98034,1.03403,-0.508492,-1.71168,-0.330283,0.0975298,-0.728814,0.895,0.187616,0.507315,0.373727,-0.331033,1.00055,-0.871547,-0.272358,-0.437994
14,1.4,-0.576247,-0.271627,-2.04825,1.12105,-0.491253,-1.66174,-0.293733,0.0480097,-0.62909,0.843109,0.157063,0.48961,0.385035,-0.254395,0.980278,-0.99961,-0.260206,-0.545303
15,1.5,-0.603723,-0.268825,-2.10632,1.20201,-0.476999,-1.61431,-0.255889,0.00998808,-0.533545,0.773949,0.128533,0.457052,0.412489,-0.503974,1.00104,-0.493558,-0.330747,-0.177361
16,1.6,-0.628637,-0.268987,-2.15862,1.28145,-0.465612,-1.56566,-0.252764,-0.0181207,-0.529619,0.840867,0.109249,0.521392,-0.029419,-0.550391,0.0675178,1.00005,-0.147075,0.725213
17,1.7,-0.654264,-0.272871,-2.21209,1.37054,-0.45513,-1.51003,-0.259176,-0.0605932,-0.538529,0.940874,0.0997095,0.591278,-0.0115657,-0.475898,-0.0142048,1.00003,-0.135591,0.707244
18,1.8,-0.680083,-0.281347,-2.2655,1.46879,-0.445943,-1.44792,-0.250664,-0.107382,-0.515981,1,0.0813786,0.635561,0.219481,-0.415071,0.529745,7.27478e-05,-0.234095,0.0608082
19,1.9,-0.704002,-0.294088,-2.31451,1.56879,-0.438988,-1.38406,-0.228203,-0.146734,-0.465409,1,0.0579765,0.641429,0.222598,-0.374746,0.48184,0.000146483,-0.231844,0.0566732
20,2,-0.725818,-0.310557,-2.35879,1.66879,-0.434302,-1.31966,-0.20848,-0.182005,-0.421023,1,0.0359027,0.646657,0.18073,-0.333771,0.413958,8.96762e-06,-0.214349,0.0508942
21,2.1,-0.745772,-0.330364,-2.39889,1.76879,-0.431782,-1.25473,-0.190929,-0.213539,-0.381928,1,0.0145775,0.651984,0.16607,-0.298845,0.368152,8.89083e-05,-0.211319,0.0557352
22,2.2,-0.764063,-0.353149,-2.43533,1.86879,-0.43138,-1.18923,-0.175131,-0.241592,-0.347453,1,-0.00656361,0.658051,0.154651,-0.265336,0.327059,1.98895e-05,-0.21385,0.0663587
23,2.3,-0.780847,-0.378574,-2.46852,1.96879,-0.433108,-1.12307,-0.16067,-0.266371,-0.317025,1,-0.0281569,0.665472,0.147116,-0.232993,0.290223,7.31248e-06,-0.223115,0.0831438
24,2.4,-0.796234,-0.40632,-2.49885,2.06879,-0.437048,-1.05607,-0.147084,-0.288034,-0.290155,1,-0.0509637,0.674891,0.144329,-0.201645,0.257406,2.87592e-05,-0.240757,0.106686
25,2.5,-0.809785,-0.434938,-2.52566,2.16506,-0.443087,-0.990566,-0.12278,-0.279604,-0.244188,0.913617,-0.068465,0.62724,0.257528,0.16318,0.458078,-1.00004,-0.14981,-0.571181
26,2.6,-0.820894,-0.46198,-2.54794,2.25142,-0.450579,-0.930721,-0.0999423,-0.260233,-0.202571,0.813626,-0.0806013,0.56944,0.201306,0.220341,0.37936,-1.00011,-0.0931931,-0.586187
27,2.7,-0.829863,-0.486808,-2.56639,2.32778,-0.459052,-0.876735,-0.0799977,-0.235605,-0.167247,0.71358,-0.0880234,0.509955,0.19956,0.270233,0.329228,-1.00014,-0.0573366,-0.602816
28,2.8,-0.83696,-0.508972,-2.58155,2.39414,-0.468029,-0.828805,-0.0624944,-0.207161,-0.136684,0.613585,-0.0906086,0.4482,0.152412,0.297277,0.284482,-1.00018,0.00426206,-0.632247
29,2.9,-0.842387,-0.528142,-2.59383,2.4505,-0.477023,-0.787195,-0.0462598,-0.17585,-0.109524,0.513541,-0.0884517,0.383432,0.145882,0.322037,0.256004,-1.00019,0.050652,-0.664894
30,3,-0.846292,-0.544085,-2.60354,2.49685,-0.485539,-0.752233,-0.0324465,-0.1428,-0.0851387,0.413539,-0.0808742,0.3152,0.128602,0.33748,0.232748,-1.00019,0.101067,-0.69981
31,3.1,-0.84896,-0.556668,-2.61093,2.53321,-0.493017,-0.724276,-0.0214065,-0.108768,-0.0628326,0.313537,-0.0677693,0.243355,0.0943217,0.342984,0.214508,-1.00018,0.158414,-0.735837
32,3.2,-0.850657,-0.565822,-2.61616,2.55956,-0.498925,-0.703675,-0.0129237,-0.0742524,-0.0419856,0.213531,-0.0496254,0.16814,0.0734741,0.346393,0.203031,-1.00014,0.203671,-0.76722
33,3.3,-0.851603,-0.571511,-2.61936,2.57591,-0.502814,-0.690737,-0.00626852,-0.0395117,-0.0220621,0.113527,-0.0276198,0.0902518,0.0591285,0.347811,0.196103,-1.00008,0.234615,-0.788855
34,3.4,-0.851105,-0.573444,-2.62079,2.58291,-0.504179,-0.684644,0.0391775,0.00983552,-0.0112691,0.0398618,0.00678819,0.0562359,0.999476,0.794044,0.0519159,-0.694796,0.55827,0.0154227
35,3.5,-0.845398,-0.56992,-2.62112,2.58213,-0.501708,-0.681916,0.0829613,0.0624499,0.00214735,-0.0467682,0.0438862,0.0103202,1,0.752759,0.0258838,-0.563735,0.528996,0.124398
36,3.6,-0.832102,-0.559911,-2.62078,2.57463,-0.494674,-0.680262,0.182961,0.137726,0.00473573,-0.103142,0.0967858,0.02276,1,0.752759,0.0258838,-0.563735,0.528996,0.124398
37,3.7,-0.808806,-0.542375,-2.62018,2.5615,-0.48235,-0.677364,0.282961,0.213002,0.00732411,-0.159515,0.149685,0.0351999,1,0.752759,0.0258838,-0.563735,0.528996,0.124398
38,3.8,-0.77551,-0.517311,-2.61931,2.54273,-0.464737,-0.673222,0.382961,0.288278,0.00991249,-0.215889,0.202585,0.0476397,1,0.752759,0.0258838,-0.563735,0.528996,0.124398
39,3.9,-0.732213,-0.484719,-2.61819,2.51832,-0.441833,-0.667836,0.482961,0.363554,0.0125009,-0.272262,0.255485,0.0600795,1,0.752759,0.0258838,-0.563735,0.528996,0.124398
40,4,-0.678917,-0.4446,-2.61681,2.48828,-0.41364,-0.661206,0.582961,0.43883,0.0150892,-0.328636,0.308384,0.0725193,1,0.752759,0.0258838,-0.563735,0.528996,0.124398
41,4.1,-0.615621,-0.396953,-2.61517,2.4526,-0.380157,-0.653332,0.682961,0.514106,0.0176776,-0.385009,0.361284,0.0849591,1,0.752759,0.0258838,-0.563735,0.528996,0.124398
42,4.2,-0.542325,-0.341779,-2.61328,2.41128,-0.341383,-0.644214,0.782961,0.589381,0.020266,-0.441383,0.414183,0.097399,1,0.752759,0.0258838,-0.563735,0.528996,0.124398
43,4.3,-0.459029,-0.279077,-2.61112,2.36432,-0.29732,-0.633853,0.882961,0.664657,0.0228544,-0.497757,0.467083,0.109839,1,0.752759,0.0258838,-0.563735,0.528996,0.124398
44,4.4,-0.365733,-0.208847,-2.60871,2.31172,-0.247967,-0.622247,0.982961,0.739933,0.0254428,-0.55413,0.519982,0.122279,1,0.752759,0.0258838,-0.563735,0.528996,0.124398
45,4.5,-0.265878,-0.133681,-2.60612,2.25543,-0.195144,-0.609825,1,0.752759,0.0258838,-0.563735,0.528996,0.124398,2.82375e-10,2.12357e-10,7.30554e-12,-1.58922e-10,1.49249e-10,3.50954e-11
46,4.6,-0.165878,-0.0584047,-2.60353,2.19906,-0.142244,-0.597385,1,0.752759,0.0258838,-0.563735,0.528996,0.124398,2.82162e-10,2.12264e-10,7.29979e-12,-1.58813e-10,1.49304e-10,3.50775e-11
47,4.7,-0.0658781,0.0168712,-2.60095,2.14269,-0.0893448,-0.584945,1,0.752759,0.0258838,-0.563735,0.528996,0.124398,2.81893e-10,2.12146e-10,7.30161e-12,-1.58674e-10,1.49084e-10,3.5055e-11
48,4.8,0.0341219,0.0921472,-2.59836,2.08631,-0.0364452,-0.572506,1,0.752759,0.0258838,-0.563735,0.528996,0.124398,2.82212e-10,2.12328e-10,7.30399e-12,-1.58828e-10,1.49465e-10,3.51093e-11
49,4.9,0.134122,0.167423,-2.59577,2.02994,0.0164544,-0.560066,1,0.752759,0.0258838,-0.563735,0.528996,0.124398,2.82644e-10,2.12573e-10,7.30721e-12,-1.59036e-10,1.49195e-10,3.50844e-11
50,5,0.234122,0.242699,-2.59318,1.97356,0.069354,-0.547626,1,0.752759,0.0258838,-0.563735,0.528996,0.124398,2.82305e-10,2.12446e-10,7.31181e-12,-1.58856e-10,1.49287e-10,3.51087e-11
51,5.1,0.334122,0.317975,-2.59059,1.91719,0.122254,-0.535186,1,0.752759,0.0258838,-0.563735,0.528996,0.124398,2.81779e-10,2.12249e-10,7.29989e-12,-1.58577e-10,1.49429e-10,3.507e-11
52,5.2,0.434122,0.393251,-2.588,1.86082,0.175153,-0.522746,1,0.752759,0.0258838,-0.563735,0.528996,0.124398,2.82538e-10,2.12744e-10,7.33149e-12,-1.58928e-10,1.49678e-10,3.52122e-11
53,5.3,0.534122,0.468527,-2.58541,1.80444,0.228053,-0.510306,1,0.752759,0.0258838,-0.563735,0.528996,0.124398,2.84222e-10,2.12489e-10,7.31701e-12,-1.58352e-10,1.50231e-10,3.51893e-11
54,5.4,0.634122,0.543803,-2.58283,1.74807,0.280952,-0.497867,1,0.752759,0.0258838,-0.563735,0.528996,0.124398,2.84229e-10,2.11438e-10,7.36568e-12,-1.59445e-10,1.49047e-10,3.50953e-11
55,5.5,0.734122,0.619079,-2.58024,1.6917,0.333852,-0.485427,1,0.752759,0.0258838,-0.563735,0.528996,0.124398,2.82039e-10,2.12207e-10,7.29886e-12,-1.58873e-10,1.49155e-10,3.50712e-11
56,5.6,0.834122,0.694355,-2.57765,1.63532,0.386752,-0.472987,1,0.752759,0.0258838,-0.563735,0.528996,0.124398,2.8216e-10,2.12275e-10,7.30328e-12,-1.58938e-10,1.49176e-10,3.50914e-11
57,5.7,0.934122,0.769631,-2.57506,1.57895,0.439651,-0.460547,1,0.752759,0.0258838,-0.563735,0.528996,0.124398,2.82044e-10,2.1235e-10,7.30033e-12,-1.58885e-10,1.49199e-10,3.50825e-11
58,5.8,1.03412,0.844907,-2.57247,1.52258,0.492551,-0.448107,1,0.752759,0.0258838,-0.563735,0.528996,0.124398,2.81913e-10,2.12302e-10,7.3012e-12,-1.5896e-10,1.49225e-10,3.50725e-11
59,5.9,1.13412,0.920183,-2.56988,1.4662,0.54545,-0.435668,1,0.752759,0.0258838,-0.563735,0.528996,0.124398,2.8205e-10,2.12247e-10,7.29775e-12,-1.58901e-10,1.49112e-10,3.50789e-11
60,6,1.23412,0.995458,-2.5673,1.40983,0.59835,-0.423228,1,0.752759,0.0258838,-0.563735,0.528996,0.124398,2.82205e-10,2.12336e-10,7.3033e-12,-1.58987e-10,1.49287e-10,3.50862e-11
61,6.1,1.33412,1.07073,-2.56471,1.35346,0.651249,-0.410788,1,0.752759,0.0258838,-0.563735,0.528996,0.124398,2.82057e-10,2.12275e-10,7.2995e-12,-1.58922e-10,1.49162e-10,3.50945e-11
62,6.2,1.43412,1.14601,-2.56212,1.29708,0.704149,-0.398348,1,0.752759,0.0258838,-0.563735,0.528996,0.124398,2.81887e-10,2.12205e-10,7.30058e-12,-1.58847e-10,1.49193e-10,3.50823e-11
63,6.3,1.53412,1.22129,-2.55953,1.24071,0.757049,-0.385908,1,0.752759,0.0258838,-0.563735,0.528996,0.124398,2.82068e-10,2.12313e-10,7.30184e-12,-1.58949e-10,1.49229e-10,3.50679e-11
64,6.4,1.63412,1.29656,-2.55694,1.18434,0.809948,-0.373468,1,0.752759,0.0258838,-0.563735,0.528996,0.124398,2.82283e-10,2.12442e-10,7.30335e-12,-1.59071e-10,1.49272e-10,3.5103e-11
65,6.5,1.73412,1.37184,-2.55435,1.12796,0.862848,-0.361029,1,0.752759,0.0258838,-0.563735,0.528996,0.124398,2.82083e-10,2.12367e-10,7.30516e-12,-1.58988e-10,1.49324e-10,3.50878e-11
66,6.6,1.83412,1.44711,-2.55177,1.07159,0.915747,-0.348589,1,0.752759,0.0258838,-0.563735,0.528996,0.124398,2.82349e-10,2.12275e-10,7.29937e-12,-1.58886e-10,1.49132e-10,3.50691e-11
67,6.7,1.93412,1.52239,-2.54918,1.01521,0.968647,-0.336149,1,0.752759,0.0258838,-0.563735,0.528996,0.124398,2.82105e-10,2.12159e-10,7.30114e-12,-1.58757e-10,1.49179e-10,3.50818e-11
68,6.8,2.03412,1.59767,-2.54659,0.958841,1.02155,-0.323709,1,0.752759,0.0258838,-0.563735,0.528996,0.124398,2.82455e-10,2.12342e-10,7.31387e-12,-1.58923e-10,1.49241e-10,3.50983e-11
69,6.9,2.13412,1.67294,-2.544,0.902467,1.07445,-0.311269,1,0.752759,0.0258838,-0.563735,0.528996,0.124398,2.82144e-10,2.1259e-10,7.30656e-12,-1.58755e-10,1.49324e-10,3.51206e-11
70,7,2.23412,1.74822,-2.54141,0.846094,1.12735,-0.29883,1,0.752759,0.0258838,-0.563735,0.528996,0.124398,2.82653e-10,2.12467e-10,7.31101e-12,-1.58992e-10,1.49443e-10,3.50929e-11
71,7.1,2.33412,1.82349,-2.53882,0.78972,1.18025,-0.28639,1,0.752759,0.0258838,-0.563735,0.528996,0.124398,2.82224e-10,2.12276e-10,7.2989e-12,-1.58751e-10,1.49019e-10,3.50499e-11
72,7.2,2.43412,1.89877,-2.53624,0.733347,1.23314,-0.27395,1,0.752759,0.0258838,-0.563735,0.528996,0.124398,8.54469e-10,6.43365e-10,2.21209e-11,-4.81686e-10,4.52366e-10,1.06285e-10
73,7.3,2.53412,1.97405,-2.53365,0.676973,1.28604,-0.26151,1,0.752759,0.0258838,-0.563735,0.528996,0.124398,8.5557e-10,6.43023e-10,2.21544e-11,-4.81595e-10,4.51999e-10,1.06274e-10
74,7.4,2.63412,2.04932,-2.53106,0.6206,1.33894,-0.24907,1,0.752759,0.0258838,-0.563735,0.528996,0.124398,8.60057e-10,6.45043e-10,2.2184e-11,-4.81222e-10,4.53919e-10,1.06654e-10
75,7.5,2.73412,2.1246,-2.52847,0.564226,1.39184,-0.23663,1,0.752759,0.0258838,-0.563735,0.528996,0.124398,8.54721e-10,6.43413e-10,2.21219e-11,-4.81797e-10,4.52094e-10,1.06318e-10
76,7.6,2.8336,2.19948,-2.5259,0.508149,1.44446,-0.224256,0.967562,0.728342,0.0250442,-0.545449,0.511837,0.120363,-1,-0.752759,-0.0258838,0.563735,-0.528996,-0.124398
77,7.7,2.92535,2.26855,-2.52352,0.456423,1.493,-0.212842,0.867562,0.653066,0.0224558,-0.489076,0.458937,0.107923,-1,-0.752759,-0.0258838,0.563735,-0.528996,-0.124398
78,7.8,3.00711,2.33009,-2.5214,0.410334,1.53625,-0.202671,0.767562,0.57779,0.0198674,-0.432702,0.406037,0.0954834,-1,-0.752759,-0.0258838,0.563735,-0.528996,-0.124398
79,7.9,3.07886,2.38411,-2.51955,0.369883,1.57421,-0.193745,0.667562,0.502514,0.017279,-0.376329,0.353138,0.0830435,-1,-0.752759,-0.0258838,0.563735,-0.528996,-0.124398
80,8,3.14062,2.43059,-2.51795,0.335068,1.60688,-0.186063,0.567562,0.427238,0.0146907,-0.319955,0.300238,0.0706037,-1,-0.752759,-0.0258838,0.563735,-0.528996,-0.124398
81,8.1,3.19238,2.46955,-2.51661,0.305891,1.63426,-0.179624,0.467562,0.351962,0.0121023,-0.263582,0.247339,0.0581639,-1,-0.752759,-0.0258838,0.563735,-0.528996,-0.124398
82,8.2,3.23413,2.50099,-2.51553,0.282352,1.65635,-0.17443,0.367562,0.276686,0.00951391,-0.207208,0.194439,0.0457241,-1,-0.752759,-0.0258838,0.563735,-0.528996,-0.124398
83,8.3,3.26589,2.52489,-2.51471,0.26445,1.67315,-0.17048,0.267562,0.20141,0.00692553,-0.150834,0.141539,0.0332843,-1,-0.752759,-0.0258838,0.563735,-0.528996,-0.124398
84,8.4,3.28765,2.54127,-2.51414,0.252185,1.68466,-0.167773,0.167562,0.126134,0.00433715,-0.0944609,0.0886398,0.0208445,-1,-0.752759,-0.0258838,0.563735,-0.528996,-0.124398
85,8.5,3.2994,2.55012,-2.51384,0.245558,1.69087,-0.166311,0.0675624,0.0508583,0.00174877,-0.0380873,0.0357403,0.00840465,-1,-0.752759,-0.0258838,0.563735,-0.528996,-0.124398
86,8.6,3.30468,2.55388,-2.51503,0.243487,1.69006,-0.163556,0.0333015,0.0206956,-0.0268523,4.70167e-05,-0.0576436,0.0479582,-0.805602,-0.639606,-0.231174,0.596972,-0.997304,0.232298
87,8.7,3.30942,2.55661,-2.51975,0.244185,1.6793,-0.155284,0.0693799,0.0389511,-0.0683622,0.0110718,-0.157621,0.120467,0.448249,0.224629,-0.414655,0.0896425,-1.00006,0.750118
88,8.8,3.31863,2.56154,-2.52859,0.245814,1.65853,-0.139541,0.115287,0.0587845,-0.107662,0.0223146,-0.257631,0.193832,0.472198,0.167655,-0.368009,0.139048,-1.00002,0.71455
89,8.9,3.33255,2.56814,-2.5411,0.248842,1.62777,-0.116636,0.163509,0.0719199,-0.141524,0.0393945,-0.357642,0.263644,0.490504,0.0921605,-0.307308,0.205225,-1.00009,0.683926
90,9,3.35141,2.57564,-2.55666,0.25395,1.58701,-0.0869218,0.214171,0.0762735,-0.168526,0.0642287,-0.457652,0.330101,0.523253,-0.00814759,-0.231057,0.294454,-1.00006,0.646362
91,9.1,3.37545,2.58304,-2.57454,0.262008,1.53624,-0.0506787,0.266827,0.0699372,-0.187576,0.0986936,-0.557657,0.394614,0.530688,-0.122542,-0.147359,0.398638,-1.00001,0.644369
92,9.2,3.40481,2.5892,-2.59388,0.274083,1.47547,-0.0079744,0.320418,0.0508418,-0.197627,0.144994,-0.657654,0.459961,0.534368,-0.262675,-0.0520212,0.531492,-0.999938,0.673744
93,9.3,3.43949,2.5927,-2.61372,0.2915,1.40471,0.0414965,0.372819,0.0163199,-0.19725,0.206152,-0.757637,0.53092,0.510809,-0.433892,0.0626216,0.699414,-0.999782,0.757649
94,9.4,3.47922,2.59181,-2.6329,0.315965,1.32395,0.0986447,0.420609,-0.0377707,-0.183809,0.286958,-0.857598,0.615091,0.424181,-0.660102,0.215349,0.930739,-0.999993,0.95866
95,9.5,3.52299,2.58433,-2.64978,0.349579,1.23376,0.16495,0.447355,-0.115428,-0.148658,0.386076,-0.93543,0.708586,0.00386387,-0.875507,0.50874,1.00051,-0.439755,0.876238
96,9.6,3.56682,2.56835,-2.66161,0.392816,1.13969,0.239406,0.412064,-0.200361,-0.0823063,0.466109,-0.914195,0.760539,-0.721726,-0.710881,0.769669,0.454824,0.977111,-0.00713211
97,9.7,3.604,2.54489,-2.66597,0.441538,1.05327,0.315791,0.332625,-0.266446,-0.00564453,0.506333,-0.814314,0.767437,-0.788577,-0.595889,0.747511,0.34496,0.999674,0.0935175
98,9.8,3.63353,2.51558,-2.66293,0.493625,0.97683,0.392882,0.257459,-0.317599,0.065921,0.533326,-0.71439,0.775242,-0.725836,-0.431676,0.685543,0.195208,0.999891,0.0619664
99,9.9,3.65543,2.48177,-2.65288,0.54777,0.910387,0.470925,0.180569,-0.35648,0.134438,0.547132,-0.614459,0.785315,-0.790962,-0.340042,0.679059,0.0730583,0.999834,0.111881
100,10,3.66971,2.44473,-2.6362,0.602513,0.853941,0.549746,0.105629,-0.381938,0.198146,0.544677,-0.514469,0.789262,-0.738359,-0.188379,0.607103,-0.112934,1.00017,-0.0132692
101,10.1,3.67677,2.40596,-2.61358,0.655983,0.807495,0.628168,0.0371501,-0.390263,0.251855,0.52054,-0.41442,0.774828,-0.633907,0.0220747,0.456642,-0.370928,1.00085,-0.290437
102,10.2,3.67756,2.3675,-2.58652,0.70563,0.771057,0.703479,-0.018537,-0.37366,0.284342,0.466568,-0.314329,0.723033,-0.447094,0.348275,0.142827,-0.737474,1.00193,-0.818633
103,10.3,3.6738,2.33227,-2.5579,0.748237,0.744448,0.77104,-0.0532791,-0.329145,0.284171,0.384879,-0.221706,0.625903,-0.226579,0.480458,-0.105828,-0.803135,0.787029,-0.999521
104,10.4,3.66754,2.30179,-2.53025,0.782793,0.725873,0.828632,-0.0692934,-0.280184,0.266517,0.307334,-0.153378,0.525919,-0.0701823,0.502999,-0.256299,-0.734864,0.572519,-0.999811
105,10.5,3.66038,2.2763,-2.50506,0.809934,0.713157,0.876224,-0.0718293,-0.229375,0.235149,0.236663,-0.103567,0.425913,0.017926,0.513276,-0.369502,-0.676012,0.430261,-0.999973
106,10.6,3.65352,2.25596,-2.48361,0.830364,0.704701,0.913815,-0.0640459,-0.177094,0.19204,0.173032,-0.067437,0.325915,0.108916,0.527082,-0.476903,-0.608218,0.312723,-1.00007
107,10.7,3.64782,2.24092,-2.46696,0.844746,0.699351,0.941406,-0.0489891,-0.123635,0.139538,0.115518,-0.0409,0.22591,0.174685,0.538801,-0.561594,-0.550837,0.230984,-1.0001
108,10.8,3.64389,2.23127,-2.45593,0.853627,0.696308,0.958997,-0.0289231,-0.0692397,0.0801188,0.0627342,-0.0207591,0.125904,0.219856,0.547863,-0.620253,-0.509531,0.17842,-1.00006
109,10.9,3.64213,2.22709,-2.45108,0.857391,0.695077,0.966587,-0.0060257,-0.0142611,0.016606,0.0128211,-0.00416787,0.0259029,0.232627,0.550559,-0.641088,-0.494968,0.160904,-1
110,10.9259,3.64205,2.22691,-2.45086,0.857557,0.695023,0.966923,-1.78814e-16,-4.23201e-16,4.92788e-16,3.80469e-16,-1.23683e-16,7.68674e-16,0.232627,0.550559,-0.641088,-0.494968,0.160904,-1
