CX996/cx_moveit2/ws_moveit/src/cr7_robot_controller/data/original_trajectory_20260126_190821.csv
index,time_from_start,position_0(joint1),position_1(joint2),position_2(joint3),position_3(joint4),position_4(joint5),position_5(joint6),velocity_0,velocity_1,velocity_2,velocity_3,velocity_4,velocity_5,acceleration_0,acceleration_1,acceleration_2,acceleration_3,acceleration_4,acceleration_5
0,0,-0.269377,-0.503094,-1.24193,0.356073,-0.679718,-2.05126,-0,0,-0,0,0,0,0,0,0,0,0,0
1,0.1,-0.270891,-0.501146,-1.24693,0.359703,-0.678647,-2.04992,-0.0302805,0.0389489,-0.1,0.072594,0.0214152,0.0267407,-0.302805,0.389489,-1,0.72594,0.214152,0.267407
2,0.2,-0.275457,-0.495318,-1.26193,0.370621,-0.675423,-2.04587,-0.0612266,0.0774961,-0.199994,0.146034,0.0431852,0.0544776,-0.315668,0.381398,-0.999983,0.744374,0.221501,0.289159
3,0.3,-0.283183,-0.485678,-1.28692,0.388978,-0.669984,-2.03894,-0.0935193,0.115135,-0.299985,0.221488,0.0656871,0.084543,-0.329214,0.370166,-0.999937,0.769155,0.228516,0.316855
4,0.4,-0.294222,-0.472338,-1.32192,0.41502,-0.662255,-2.02885,-0.12766,0.151365,-0.399973,0.299939,0.0890893,0.117946,-0.35545,0.353588,-0.999926,0.801208,0.240178,0.352555
5,0.5,-0.308792,-0.455476,-1.36692,0.449123,-0.65213,-2.01518,-0.164245,0.185474,-0.499956,0.382969,0.113608,0.156303,-0.375499,0.326623,-0.999938,0.865394,0.249748,0.420226
6,0.6,-0.327163,-0.435347,-1.42191,0.491842,-0.639496,-1.99735,-0.20375,0.216516,-0.599933,0.472649,0.139278,0.201566,-0.417702,0.292319,-0.999797,0.930342,0.263864,0.48625
7,0.7,-0.349599,-0.412351,-1.48677,0.543829,-0.624275,-1.97464,-0.245417,0.241298,-0.695159,0.568278,0.16499,0.254844,-0.388174,0.291767,-0.999976,0.946005,0.249616,0.495604
8,0.8,-0.376195,-0.387288,-1.56071,0.60557,-0.606568,-1.94624,-0.286468,0.256911,-0.779857,0.66722,0.188535,0.315302,-0.408157,-0.0348276,-0.597577,1.00004,0.19684,0.71807
9,0.9,-0.406777,-0.361254,-1.64236,0.677292,-0.586696,-1.91145,-0.324531,0.261467,-0.850011,0.767228,0.208032,0.381528,-0.334908,-0.23027,-0.328267,1.00023,0.112545,0.798656
10,1,-0.440904,-0.335653,-1.72981,0.759016,-0.565218,-1.86966,-0.357083,0.248997,-0.896984,0.867243,0.220603,0.454614,-0.236262,-0.441397,-0.0375275,1.00006,0.00856758,0.868946
11,1.1,-0.477943,-0.312054,-1.82095,0.850741,-0.54286,-1.82034,-0.382668,0.221116,-0.923215,0.967256,0.225459,0.531941,-0.319886,-0.0631332,-0.56532,1.00016,0.123893,0.663368
12,1.2,-0.516256,-0.292468,-1.91157,0.950139,-0.520945,-1.76446,-0.37509,0.166692,-0.870443,0.999475,0.207934,0.572915,0.338194,-0.41407,1.00043,-0.712609,-0.2626,-0.317304
13,1.3,-0.552656,-0.278823,-1.99455,1.05006,-0.501462,-1.70621,-0.353041,0.106598,-0.790604,1,0.181778,0.592192,0.0561494,-0.277072,0.340948,5.27817e-05,-0.107552,0.0647018
14,1.4,-0.586886,-0.27092,-2.06996,1.15001,-0.484537,-1.64628,-0.331394,0.0513937,-0.71796,0.999372,0.156545,0.606091,0.344637,-0.815972,1.00005,0.137755,-0.381965,0.293073
15,1.5,-0.619025,-0.268573,-2.13844,1.24998,-0.469845,-1.58512,-0.310023,-0.00569044,-0.651443,1,0.138689,0.61657,0.224028,-0.274513,0.404083,2.08465e-05,-0.174072,0.0741193
16,1.6,-0.648536,-0.271643,-2.20018,1.34995,-0.457368,-1.52295,-0.281063,-0.0548141,-0.585129,1,0.111378,0.626683,0.307384,-0.475747,0.649042,7.42824e-05,-0.2784,0.0947664
17,1.7,-0.675319,-0.279398,-2.25568,1.44995,-0.447519,-1.45988,-0.255242,-0.0994764,-0.526279,1,0.0859791,0.634317,0.263765,-0.425011,0.562895,9.89512e-05,-0.253641,0.0708043
18,1.8,-0.699664,-0.29139,-2.30566,1.54995,-0.440121,-1.39614,-0.232192,-0.139639,-0.474431,1,0.0622629,0.6404,0.202075,-0.379197,0.477134,7.33919e-05,-0.223994,0.0530097
19,1.9,-0.721857,-0.307188,-2.35078,1.64995,-0.435017,-1.33183,-0.212048,-0.175658,-0.428969,1,0.04,0.645679,0.184513,-0.342235,0.425473,4.97308e-05,-0.215513,0.050551
20,2,-0.742146,-0.326395,-2.39163,1.74995,-0.432094,-1.267,-0.194095,-0.20787,-0.388925,1,0.0185666,0.650941,0.170106,-0.303386,0.375,6.34479e-05,-0.212521,0.055207
21,2.1,-0.760737,-0.348645,-2.42872,1.84995,-0.431294,-1.20162,-0.178003,-0.236559,-0.353631,1,-0.00256185,0.656823,0.149762,-0.269864,0.329499,5.42855e-05,-0.210746,0.063822
22,2.2,-0.777794,-0.373597,-2.4625,1.94995,-0.432617,-1.13559,-0.163337,-0.261942,-0.322485,1,-0.024012,0.66394,0.133981,-0.237998,0.289355,2.66884e-05,-0.215849,0.0788478
23,2.3,-0.793438,-0.400929,-2.49334,2.04995,-0.43613,-1.06877,-0.149627,-0.284185,-0.294978,1,-0.046523,0.672929,0.12315,-0.207739,0.254231,4.4705e-05,-0.229371,0.100925
24,2.4,-0.807429,-0.429645,-2.52098,2.14768,-0.441824,-1.00248,-0.127437,-0.282576,-0.252922,0.932622,-0.0656815,0.638117,0.238994,0.147685,0.465555,-1.00005,-0.149721,-0.570233
25,2.5,-0.818978,-0.457047,-2.54406,2.23595,-0.449081,-0.941533,-0.104035,-0.264389,-0.209914,0.832626,-0.0786894,0.580551,0.232064,0.214692,0.39709,-1.0001,-0.112981,-0.580645
26,2.6,-0.82833,-0.482338,-2.56319,2.31421,-0.457408,-0.886417,-0.0834176,-0.240624,-0.173502,0.73263,-0.087093,0.521479,0.203427,0.26095,0.339942,-1.00015,-0.0635295,-0.601337
27,2.7,-0.835762,-0.505039,-2.57894,2.38247,-0.466332,-0.837311,-0.0655105,-0.212814,-0.142155,0.63264,-0.0906033,0.460214,0.177617,0.295474,0.295423,-1.00019,-0.0137279,-0.626461
28,2.8,-0.841497,-0.524803,-2.59174,2.44074,-0.475364,-0.794469,-0.0490954,-0.181991,-0.11444,0.532642,-0.0893517,0.396091,0.166755,0.32116,0.264351,-1.0002,0.0342814,-0.658798
29,2.9,-0.845669,-0.541375,-2.60192,2.489,-0.484019,-0.758207,-0.0347513,-0.149185,-0.0895804,0.432607,-0.0828392,0.328523,0.124235,0.33379,0.235486,-1.00022,0.0947716,-0.693035
30,3,-0.848549,-0.554606,-2.60973,2.52726,-0.491743,-0.728883,-0.0232471,-0.115304,-0.0669385,0.332601,-0.0707347,0.25735,0.103999,0.342638,0.218185,-1.0002,0.147478,-0.730252
31,3.1,-0.85041,-0.564417,-2.61536,2.55552,-0.497991,-0.706854,-0.0143423,-0.0808457,-0.045861,0.232574,-0.0534599,0.182717,0.0769621,0.346027,0.204754,-1.00017,0.195929,-0.761768
32,3.2,-0.851484,-0.570767,-2.61894,2.57378,-0.502296,-0.692435,-0.00740554,-0.0461335,-0.0258011,0.132569,-0.0320622,0.105254,0.0611725,0.347686,0.197024,-1.00011,0.230077,-0.785639
33,3.3,-0.85224,-0.57341,-2.62063,2.58224,-0.504154,-0.685392,-0.0237977,0.00600668,-0.012122,0.0456634,0.00408981,0.0589962,-0.692018,0.999998,0.0269654,-0.718701,0.702662,0.200164
34,3.4,-0.855745,-0.569705,-2.62111,2.58197,-0.501557,-0.681881,-0.0431535,0.0634465,0.00218162,-0.0475146,0.0445865,0.0104849,-0.680156,1,0.0343851,-0.748892,0.702742,0.165256
35,3.5,-0.863461,-0.558361,-2.62072,2.57347,-0.493584,-0.680006,-0.111169,0.163447,0.00562013,-0.122404,0.114861,0.0270106,-0.680156,1,0.0343851,-0.748892,0.702742,0.165256
36,3.6,-0.877979,-0.537016,-2.61999,2.55749,-0.478585,-0.676479,-0.179185,0.263447,0.00905865,-0.197293,0.185135,0.0435362,-0.680156,1,0.0343851,-0.748892,0.702742,0.165256
37,3.7,-0.899298,-0.505671,-2.61891,2.53401,-0.456557,-0.671299,-0.2472,0.363447,0.0124972,-0.272182,0.255409,0.0600618,-0.680156,1,0.0343851,-0.748892,0.702742,0.165256
38,3.8,-0.927419,-0.464327,-2.61749,2.50305,-0.427503,-0.664466,-0.315216,0.463447,0.0159357,-0.347071,0.325683,0.0765874,-0.680156,1,0.0343851,-0.748892,0.702742,0.165256
39,3.9,-0.962341,-0.412982,-2.61573,2.4646,-0.391421,-0.655981,-0.383231,0.563447,0.0193742,-0.421961,0.395958,0.093113,-0.680156,1,0.0343851,-0.748892,0.702742,0.165256
40,4,-1.00406,-0.351637,-2.61362,2.41866,-0.348311,-0.645844,-0.451247,0.663447,0.0228127,-0.49685,0.466232,0.109639,-0.680156,1,0.0343851,-0.748892,0.702742,0.165256
41,4.1,-1.05259,-0.280293,-2.61116,2.36523,-0.298174,-0.634054,-0.519263,0.763447,0.0262512,-0.571739,0.536506,0.126164,-0.680156,1,0.0343851,-0.748892,0.702742,0.165256
42,4.2,-1.10792,-0.198948,-2.60837,2.30431,-0.24101,-0.620611,-0.587278,0.863447,0.0296897,-0.646628,0.60678,0.14269,-0.680156,1,0.0343851,-0.748892,0.702742,0.165256
43,4.3,-1.17005,-0.107603,-2.60523,2.2359,-0.176818,-0.605516,-0.655294,0.963447,0.0331282,-0.721517,0.677054,0.159216,-0.680156,1,0.0343851,-0.748892,0.702742,0.165256
44,4.4,-1.23761,-0.00827148,-2.60181,2.16151,-0.107014,-0.5891,-0.680156,1,0.0343851,-0.748892,0.702742,0.165256,-2.08533e-10,3.06807e-10,1.05547e-11,-2.2967e-10,2.15506e-10,5.07169e-11
45,4.5,-1.30562,0.0917285,-2.59837,2.08663,-0.0367395,-0.572575,-0.680156,1,0.0343851,-0.748892,0.702742,0.165256,-2.08754e-10,3.06849e-10,1.05555e-11,-2.29774e-10,2.15519e-10,5.07388e-11
46,4.6,-1.37364,0.191729,-2.59493,2.01174,0.0335347,-0.556049,-0.680156,1,0.0343851,-0.748892,0.702742,0.165256,-2.08758e-10,3.06901e-10,1.05565e-11,-2.29634e-10,2.15536e-10,5.07661e-11
47,4.7,-1.44165,0.291729,-2.59149,1.93685,0.103809,-0.539523,-0.680156,1,0.0343851,-0.748892,0.702742,0.165256,-2.08763e-10,3.06968e-10,1.05578e-11,-2.29763e-10,2.15557e-10,5.07238e-11
48,4.8,-1.50967,0.391729,-2.58806,1.86196,0.174083,-0.522998,-0.680156,1,0.0343851,-0.748892,0.702742,0.165256,-2.08411e-10,3.07056e-10,1.05595e-11,-2.29575e-10,2.15226e-10,5.06679e-11
49,4.9,-1.57768,0.491729,-2.58462,1.78707,0.244357,-0.506472,-0.680156,1,0.0343851,-0.748892,0.702742,0.165256,-2.08779e-10,3.07179e-10,1.05619e-11,-2.29742e-10,2.15624e-10,5.06973e-11
50,5,-1.6457,0.591729,-2.58118,1.71218,0.314632,-0.489947,-0.680156,1,0.0343851,-0.748892,0.702742,0.165256,-2.08792e-10,3.07359e-10,1.05655e-11,-2.2946e-10,2.15681e-10,5.07408e-11
51,5.1,-1.71372,0.691729,-2.57774,1.63729,0.384906,-0.473421,-0.680156,1,0.0343851,-0.748892,0.702742,0.165256,-2.08814e-10,3.07653e-10,1.05712e-11,-2.29696e-10,2.15775e-10,5.08115e-11
52,5.2,-1.78173,0.791729,-2.5743,1.5624,0.45518,-0.456895,-0.680156,1,0.0343851,-0.748892,0.702742,0.165256,-2.07843e-10,3.06188e-10,1.05822e-11,-2.29134e-10,2.1494e-10,5.06933e-11
53,5.3,-1.84975,0.891729,-2.57086,1.48751,0.525454,-0.44037,-0.680156,1,0.0343851,-0.748892,0.702742,0.165256,-2.0897e-10,3.05991e-10,1.06117e-11,-2.29493e-10,2.14567e-10,5.08431e-11
54,5.4,-1.91776,0.991729,-2.56742,1.41262,0.595728,-0.423844,-0.680156,1,0.0343851,-0.748892,0.702742,0.165256,-2.10273e-10,3.03727e-10,1.09517e-11,-2.21954e-10,2.10273e-10,5.25682e-11
55,5.5,-1.98578,1.09173,-2.56399,1.33773,0.666003,-0.407318,-0.680156,1,0.0343851,-0.748892,0.702742,0.165256,-2.08744e-10,3.06929e-10,1.05529e-11,-2.29792e-10,2.15683e-10,5.07115e-11
56,5.6,-2.05379,1.19173,-2.56055,1.26284,0.736277,-0.390793,-0.680156,1,0.0343851,-0.748892,0.702742,0.165256,-2.08623e-10,3.06713e-10,1.05532e-11,-2.2973e-10,2.15578e-10,5.07223e-11
57,5.7,-2.12181,1.29173,-2.55711,1.18796,0.806551,-0.374267,-0.680156,1,0.0343851,-0.748892,0.702742,0.165256,-2.08618e-10,3.0673e-10,1.05535e-11,-2.2966e-10,2.15589e-10,5.07021e-11
58,5.8,-2.18983,1.39173,-2.55367,1.11307,0.876825,-0.357742,-0.680156,1,0.0343851,-0.748892,0.702742,0.165256,-2.08748e-10,3.07023e-10,1.05539e-11,-2.29719e-10,2.15602e-10,5.07136e-11
59,5.9,-2.25784,1.49173,-2.55023,1.03818,0.947099,-0.341216,-0.680156,1,0.0343851,-0.748892,0.702742,0.165256,-2.0875e-10,3.07063e-10,1.05544e-11,-2.29786e-10,2.15616e-10,5.07267e-11
60,6,-2.32586,1.59173,-2.54679,0.963288,1.01737,-0.32469,-0.680156,1,0.0343851,-0.748892,0.702742,0.165256,-2.08596e-10,3.06795e-10,1.05549e-11,-2.29705e-10,2.15476e-10,5.07025e-11
61,6.1,-2.39387,1.69173,-2.54336,0.888398,1.08765,-0.308165,-0.680156,1,0.0343851,-0.748892,0.702742,0.165256,-2.08586e-10,3.06823e-10,1.05555e-11,-2.29613e-10,2.15483e-10,5.07167e-11
62,6.2,-2.46189,1.79173,-2.53992,0.813509,1.15792,-0.291639,-0.680156,1,0.0343851,-0.748892,0.702742,0.165256,-2.08757e-10,3.06856e-10,1.05562e-11,-2.29687e-10,2.15673e-10,5.07332e-11
63,6.3,-2.5299,1.89173,-2.53648,0.73862,1.2282,-0.275114,-0.680156,1,0.0343851,-0.748892,0.702742,0.165256,-2.0876e-10,3.06895e-10,1.0557e-11,-2.29775e-10,2.15699e-10,5.07527e-11
64,6.4,-2.59792,1.99173,-2.53304,0.663731,1.29847,-0.258588,-0.680156,1,0.0343851,-0.748892,0.702742,0.165256,-2.08546e-10,3.06942e-10,1.05443e-11,-2.29662e-10,2.15512e-10,5.07216e-11
65,6.5,-2.66538,2.09091,-2.52963,0.589457,1.36817,-0.242198,-0.652582,0.95946,0.0329912,-0.718531,0.674253,0.158557,0.680156,-1,-0.0343851,0.748892,-0.702742,-0.165256
66,6.6,-2.72723,2.18185,-2.5265,0.521348,1.43208,-0.227169,-0.584566,0.85946,0.0295526,-0.643642,0.603978,0.142031,0.680156,-1,-0.0343851,0.748892,-0.702742,-0.165256
67,6.7,-2.78229,2.2628,-2.52372,0.460729,1.48896,-0.213792,-0.516551,0.75946,0.0261141,-0.568753,0.533704,0.125505,0.680156,-1,-0.0343851,0.748892,-0.702742,-0.165256
68,6.8,-2.83054,2.33374,-2.52128,0.407598,1.53882,-0.202068,-0.448535,0.65946,0.0226756,-0.493864,0.46343,0.10898,0.680156,-1,-0.0343851,0.748892,-0.702742,-0.165256
69,6.9,-2.872,2.39469,-2.51918,0.361956,1.58165,-0.191996,-0.38052,0.55946,0.0192371,-0.418975,0.393156,0.0924542,0.680156,-1,-0.0343851,0.748892,-0.702742,-0.165256
70,7,-2.90665,2.44564,-2.51743,0.323803,1.61745,-0.183577,-0.312504,0.45946,0.0157986,-0.344086,0.322882,0.0759286,0.680156,-1,-0.0343851,0.748892,-0.702742,-0.165256
71,7.1,-2.9345,2.48658,-2.51602,0.293139,1.64623,-0.17681,-0.244489,0.35946,0.0123601,-0.269196,0.252607,0.0594029,0.680156,-1,-0.0343851,0.748892,-0.702742,-0.165256
72,7.2,-2.95554,2.51753,-2.51496,0.269964,1.66797,-0.171696,-0.176473,0.25946,0.00892155,-0.194307,0.182333,0.0428773,0.680156,-1,-0.0343851,0.748892,-0.702742,-0.165256
73,7.3,-2.96979,2.53847,-2.51424,0.254277,1.68269,-0.168235,-0.108457,0.15946,0.00548304,-0.119418,0.112059,0.0263517,0.680156,-1,-0.0343851,0.748892,-0.702742,-0.165256
74,7.4,-2.97724,2.54942,-2.51386,0.24608,1.69038,-0.166426,-0.0404418,0.0594596,0.00204453,-0.0445288,0.0417848,0.00982607,0.680156,-1,-0.0343851,0.748892,-0.702742,-0.165256
75,7.5,-2.97845,2.55388,-2.51505,0.243494,1.69001,-0.163519,0.0184137,0.019982,-0.0229294,-0.00164567,-0.0478073,0.0414647,0.617854,-0.989662,0.00675468,0.718149,-0.588667,-0.229452
76,7.6,-2.97425,2.55634,-2.51927,0.244109,1.68039,-0.15612,0.0642654,0.0362548,-0.0634978,0.0101383,-0.14612,0.111769,0.446778,0.228676,-0.418077,0.0861428,-1.00002,0.752648
77,7.7,-2.96556,2.56103,-2.52765,0.245622,1.66078,-0.141231,0.109934,0.0566646,-0.103271,0.0208813,-0.246129,0.185494,0.46924,0.174939,-0.374019,0.132746,-1.00004,0.719119
78,7.8,-2.95219,2.56746,-2.53975,0.248473,1.63116,-0.11914,0.157881,0.0706287,-0.137799,0.0372367,-0.34614,0.255716,0.495362,0.0989731,-0.313185,0.199204,-1.00003,0.681058
79,7.9,-2.9339,2.57487,-2.55498,0.25332,1.59155,-0.090203,0.208252,0.0760543,-0.165623,0.061118,-0.44615,0.322533,0.519465,0.00383579,-0.240462,0.28389,-1.00005,0.6515
80,8,-2.91046,2.58232,-2.57261,0.261011,1.54193,-0.0547113,0.260801,0.0709802,-0.185602,0.0944364,-0.546156,0.38711,0.527745,-0.108587,-0.157995,0.38616,-1.00001,0.647924
81,8.1,-2.88171,2.58865,-2.59181,0.272591,1.48232,-0.0127626,0.314335,0.0534276,-0.196723,0.139288,-0.646155,0.452223,0.531781,-0.245146,-0.0636044,0.514564,-0.999951,0.670708
82,8.2,-2.84762,2.5925,-2.61162,0.289349,1.4127,0.0358979,0.366965,0.0208025,-0.197617,0.198592,-0.74614,0.522305,0.510001,-0.412734,0.0487158,0.678245,-0.999927,0.749051
83,8.3,-2.80845,2.59218,-2.63091,0.312939,1.33309,0.0920992,0.415409,-0.0308232,-0.185832,0.276883,-0.846103,0.604589,0.456049,-0.63072,0.194184,0.901798,-0.99996,0.916991
84,8.4,-2.76502,2.58552,-2.64814,0.345466,1.24384,0.157344,0.446389,-0.106048,-0.153845,0.375053,-0.929719,0.698901,0.10828,-0.851041,0.469891,1.00054,-0.517192,0.858846
85,8.5,-2.72088,2.57048,-2.66067,0.38779,1.14966,0.231161,0.420315,-0.192553,-0.0907781,0.461184,-0.925035,0.760557,-0.818291,-0.743081,0.796501,0.470253,0.999585,0.0430996
86,8.6,-2.68283,2.54775,-2.66586,0.436069,1.06215,0.307475,0.34038,-0.260195,-0.0135489,0.502693,-0.825112,0.767083,-0.674191,-0.567283,0.721404,0.330966,0.999862,-0.00583208
87,8.7,-2.65249,2.519,-2.6636,0.487856,0.984633,0.384483,0.265767,-0.312649,0.0582989,0.531013,-0.725247,0.774177,-0.806502,-0.483407,0.721206,0.234181,0.999727,0.138552
88,8.8,-2.62976,2.48562,-2.6543,0.541843,0.917106,0.462418,0.188766,-0.352937,0.127239,0.546385,-0.625281,0.784437,-0.741446,-0.322339,0.659467,0.0683671,0.999958,0.0678277
89,8.9,-2.61466,2.44886,-2.63831,0.596602,0.859576,0.54119,0.113562,-0.379886,0.191572,0.54585,-0.525306,0.789418,-0.718769,-0.186873,0.601511,-0.104448,1.00018,-0.0234304
90,9,-2.60685,2.41019,-2.61628,0.650319,0.812046,0.619753,0.0440892,-0.390376,0.246788,0.524419,-0.425264,0.777777,-0.647592,-0.00301848,0.478594,-0.341807,1.0007,-0.252373
91,9.1,-2.60545,2.37157,-2.58959,0.700531,0.774523,0.695596,-0.0133075,-0.376968,0.282324,0.474133,-0.325174,0.731143,-0.475989,0.290298,0.197723,-0.670926,0.993804,-0.719452
92,9.2,-2.60883,2.33587,-2.56099,0.744017,0.746899,0.764197,-0.0503923,-0.334278,0.285096,0.393723,-0.230581,0.63674,-0.281138,0.470995,-0.0734012,-0.822441,0.834609,-0.999478
93,9.3,-2.6149,2.30485,-2.53315,0.779418,0.72757,0.822872,-0.0683918,-0.285614,0.269183,0.315374,-0.159724,0.536758,-0.118063,0.494605,-0.226312,-0.75514,0.611835,-0.999778
94,9.4,-2.62202,2.27881,-2.50763,0.807329,0.714306,0.871548,-0.0719622,-0.234928,0.23908,0.24404,-0.108307,0.436753,0.006349,0.511329,-0.355473,-0.685249,0.444627,-0.99996
95,9.5,-2.62896,2.25791,-2.48572,0.828453,0.705451,0.910223,-0.0652238,-0.182808,0.197175,0.179642,-0.0708588,0.336754,0.119103,0.529773,-0.476416,-0.606318,0.313598,-1.00005
96,9.6,-2.63483,2.24229,-2.46851,0.843461,0.699808,0.938899,-0.0508498,-0.129469,0.145581,0.121519,-0.0434426,0.236751,0.168486,0.537543,-0.553342,-0.556626,0.238315,-1.00009
97,9.7,-2.63897,2.23205,-2.45684,0.852917,0.696543,0.957573,-0.0312922,-0.0751754,0.0868192,0.0682733,-0.0227124,0.136745,0.217185,0.547292,-0.615891,-0.512566,0.182077,-1.00006
98,9.8,-2.64097,2.22728,-2.4513,0.857223,0.695132,0.966248,-0.0085474,-0.0202292,0.0235555,0.0181866,-0.00591208,0.036743,0.232627,0.550559,-0.641088,-0.494968,0.160904,-1
99,9.83674,-2.64113,2.22691,-2.45086,0.857557,0.695023,0.966923,-1.87893e-16,-4.44687e-16,5.17807e-16,3.99786e-16,-1.29962e-16,8.077e-16,0.232627,0.550559,-0.641088,-0.494968,0.160904,-1
