CX996/cx_moveit2/ws_moveit/src/cr7_robot_controller/data/original_trajectory_20260126_163918.csv
index,time_from_start,position_0(joint1),position_1(joint2),position_2(joint3),position_3(joint4),position_4(joint5),position_5(joint6),velocity_0,velocity_1,velocity_2,velocity_3,velocity_4,velocity_5,acceleration_0,acceleration_1,acceleration_2,acceleration_3,acceleration_4,acceleration_5
0,0,-2.94226,1.69375,-1.26081,0.506786,2.25763,-1.43683,-0,0,-0,0,0,0,0,0,0,0,0,0
1,0.1,-2.94327,1.69646,-1.26581,0.50735,2.25802,-1.43434,-0.0200588,0.0541458,-0.1,0.0112721,0.00780513,0.0497221,-0.200588,0.541458,-1,0.112721,0.0780513,0.497221
2,0.2,-2.94629,1.7046,-1.28081,0.50898,2.25918,-1.42682,-0.0404301,0.108794,-0.199994,0.0208975,0.0152949,0.101244,-0.205283,0.551022,-0.999988,0.0812744,0.0714262,0.531849
3,0.3,-2.95137,1.71825,-1.30581,0.511414,2.26106,-1.41397,-0.0613286,0.164518,-0.299983,0.0270326,0.0220105,0.156599,-0.21111,0.564777,-0.999926,0.0367658,0.0608596,0.580789
4,0.4,-2.95859,1.73756,-1.34081,0.514211,2.26354,-1.39531,-0.0830439,0.221953,-0.399968,0.0278163,0.0273871,0.217802,-0.218113,0.58578,-0.999846,-0.0285962,0.0421162,0.652473
5,0.5,-2.96676,1.7594,-1.3799,0.516466,2.2661,-1.37352,-0.0729748,0.194821,-0.346252,0.015796,0.0214431,0.197621,0.203905,-0.537984,1.0002,-0.12232,-0.085162,-0.48652
6,0.6,-2.97304,1.77616,-1.40952,0.517541,2.26785,-1.3563,-0.0524391,0.140075,-0.246246,0.00662902,0.0138495,0.14558,0.207635,-0.556012,1.00016,-0.0652581,-0.0679573,-0.549536
7,0.7,-2.97723,1.78736,-1.42915,0.517944,2.26891,-1.34457,-0.0313349,0.083811,-0.14624,0.00208058,0.00761514,0.088488,0.21251,-0.568454,1.0001,-0.0280445,-0.0565544,-0.590094
8,0.8,-2.9793,1.79289,-1.43877,0.518051,2.2694,-1.33871,-0.0099276,0.0265977,-0.0462359,0.000360987,0.00230278,0.0283031,0.214628,-0.57479,1.00003,-0.00927085,-0.0503266,-0.610556
9,0.9,-2.97584,1.79373,-1.44179,0.517282,2.26818,-1.3363,0.0588058,-0.0171717,0.0080885,-0.0110811,-0.0194056,0.00281764,-0.152463,-0.494707,0.999968,0.0631019,0.0724649,-0.662133
10,1,-2.96616,1.78997,-1.43871,0.515517,2.26503,-1.33696,0.146107,-0.0570795,0.0473895,-0.0266128,-0.0476223,-0.0105051,1,-0.390669,0.324348,-0.182146,-0.325941,-0.0718998
11,1.1,-2.94655,1.78231,-1.43235,0.511945,2.25864,-1.33837,0.246107,-0.0961464,0.0798243,-0.0448275,-0.0802164,-0.0176951,1,-0.390669,0.324348,-0.182146,-0.325941,-0.0718998
12,1.2,-2.91694,1.77075,-1.42274,0.506552,2.24899,-1.3405,0.346107,-0.135213,0.112259,-0.0630421,-0.11281,-0.024885,1,-0.390669,0.324348,-0.182146,-0.325941,-0.0718998
13,1.3,-2.87733,1.75527,-1.40989,0.499337,2.23607,-1.34335,0.446107,-0.17428,0.144694,-0.0812567,-0.145405,-0.032075,1,-0.390669,0.324348,-0.182146,-0.325941,-0.0718998
14,1.4,-2.82772,1.73589,-1.3938,0.490301,2.2199,-1.34692,0.546107,-0.213347,0.177129,-0.0994713,-0.177999,-0.039265,1,-0.390669,0.324348,-0.182146,-0.325941,-0.0718998
15,1.5,-2.76811,1.7126,-1.37447,0.479443,2.20048,-1.3512,0.646107,-0.252414,0.209563,-0.117686,-0.210593,-0.046455,1,-0.390669,0.324348,-0.182146,-0.325941,-0.0718998
16,1.6,-2.6985,1.68541,-1.35189,0.466764,2.17779,-1.35621,0.746107,-0.291481,0.241998,-0.1359,-0.243187,-0.053645,1,-0.390669,0.324348,-0.182146,-0.325941,-0.0718998
17,1.7,-2.61889,1.6543,-1.32607,0.452263,2.15184,-1.36193,0.846107,-0.330548,0.274433,-0.154115,-0.275781,-0.0608349,1,-0.390669,0.324348,-0.182146,-0.325941,-0.0718998
18,1.8,-2.52928,1.6193,-1.297,0.43594,2.12263,-1.36837,0.946107,-0.369615,0.306868,-0.17233,-0.308375,-0.0680249,1,-0.390669,0.324348,-0.182146,-0.325941,-0.0718998
19,1.9,-2.43073,1.5808,-1.26504,0.41799,2.09051,-1.37546,1,-0.390669,0.324348,-0.182146,-0.325941,-0.0718998,5.6286e-11,-2.20729e-11,1.82791e-11,-1.02777e-11,-1.83481e-11,-4.05245e-12
20,2,-2.33073,1.54173,-1.2326,0.399776,2.05792,-1.38265,1,-0.390669,0.324348,-0.182146,-0.325941,-0.0718998,2.43589e-10,-9.52438e-11,7.89899e-11,-4.44226e-11,-7.94312e-11,-1.75227e-11
21,2.1,-2.23073,1.50266,-1.20017,0.381561,2.02532,-1.38984,1,-0.390669,0.324348,-0.182146,-0.325941,-0.0718998,2.43857e-10,-9.52271e-11,7.90015e-11,-4.44236e-11,-7.93953e-11,-1.75253e-11
22,2.2,-2.13073,1.4636,-1.16773,0.363347,1.99273,-1.39703,1,-0.390669,0.324348,-0.182146,-0.325941,-0.0718998,2.43827e-10,-9.52079e-11,7.90149e-11,-4.44247e-11,-7.94388e-11,-1.75283e-11
23,2.3,-2.03073,1.42453,-1.1353,0.345132,1.96013,-1.40422,1,-0.390669,0.324348,-0.182146,-0.325941,-0.0718998,2.43792e-10,-9.52773e-11,7.90306e-11,-4.4426e-11,-7.93977e-11,-1.75317e-11
24,2.4,-1.93073,1.38546,-1.10287,0.326917,1.92754,-1.41141,1,-0.390669,0.324348,-0.182146,-0.325941,-0.0718998,2.43751e-10,-9.52591e-11,7.89489e-11,-4.44275e-11,-7.94493e-11,-1.75359e-11
25,2.5,-1.83073,1.3464,-1.07043,0.308703,1.89494,-1.4186,1,-0.390669,0.324348,-0.182146,-0.325941,-0.0718998,2.43702e-10,-9.52372e-11,7.89611e-11,-4.44294e-11,-7.9401e-11,-1.75408e-11
26,2.6,-1.73073,1.30733,-1.038,0.290488,1.86235,-1.42579,1,-0.390669,0.324348,-0.182146,-0.325941,-0.0718998,2.43642e-10,-9.52106e-11,7.8976e-11,-4.44316e-11,-7.94643e-11,-1.75163e-11
27,2.7,-1.63073,1.26826,-1.00556,0.272274,1.82976,-1.43298,1,-0.390669,0.324348,-0.182146,-0.325941,-0.0718998,2.43567e-10,-9.51775e-11,7.89946e-11,-4.44344e-11,-7.9406e-11,-1.75201e-11
28,2.8,-1.53073,1.2292,-0.973126,0.254059,1.79716,-1.44017,1,-0.390669,0.324348,-0.182146,-0.325941,-0.0718998,2.4347e-10,-9.52914e-11,7.90183e-11,-4.4438e-11,-7.94878e-11,-1.75249e-11
29,2.9,-1.43073,1.19013,-0.940692,0.235844,1.76457,-1.44736,1,-0.390669,0.324348,-0.182146,-0.325941,-0.0718998,2.43343e-10,-9.52606e-11,7.88678e-11,-4.44428e-11,-7.94142e-11,-1.75312e-11
30,3,-1.33073,1.15106,-0.908257,0.21763,1.73197,-1.45455,1,-0.390669,0.324348,-0.182146,-0.325941,-0.0718998,2.44036e-10,-9.52177e-11,7.8876e-11,-4.44495e-11,-7.93118e-11,-1.75401e-11
31,3.1,-1.23073,1.11199,-0.875822,0.199415,1.69938,-1.46174,1,-0.390669,0.324348,-0.182146,-0.325941,-0.0718998,2.43984e-10,-9.51539e-11,7.88883e-11,-4.44594e-11,-7.94305e-11,-1.75533e-11
32,3.2,-1.13073,1.07293,-0.843387,0.181201,1.66679,-1.46893,1,-0.390669,0.324348,-0.182146,-0.325941,-0.0718998,2.43899e-10,-9.54075e-11,7.89084e-11,-4.44757e-11,-7.92671e-11,-1.75751e-11
33,3.3,-1.03073,1.03386,-0.810953,0.162986,1.63419,-1.47612,1,-0.390669,0.324348,-0.182146,-0.325941,-0.0718998,2.43732e-10,-9.53732e-11,7.89479e-11,-4.45075e-11,-7.94777e-11,-1.74851e-11
34,3.4,-0.93073,0.994794,-0.778518,0.144771,1.6016,-1.48331,1,-0.390669,0.324348,-0.182146,-0.325941,-0.0718998,2.43259e-10,-9.52765e-11,7.80457e-11,-4.45975e-11,-7.90593e-11,-1.74843e-11
35,3.5,-0.83073,0.955727,-0.746083,0.126557,1.569,-1.4905,1,-0.390669,0.324348,-0.182146,-0.325941,-0.0718998,2.32878e-10,-9.31513e-11,6.98634e-11,-4.65756e-11,-8.15074e-11,-1.74659e-11
36,3.6,-0.73073,0.91666,-0.713648,0.108342,1.53641,-1.49769,1,-0.390669,0.324348,-0.182146,-0.325941,-0.0718998,2.436e-10,-9.51851e-11,7.89723e-11,-4.43674e-11,-7.93791e-11,-1.75203e-11
37,3.7,-0.63073,0.877593,-0.681214,0.0901275,1.50382,-1.50488,1,-0.390669,0.324348,-0.182146,-0.325941,-0.0718998,2.43564e-10,-9.51689e-11,7.89804e-11,-4.43958e-11,-7.94096e-11,-1.75222e-11
38,3.8,-0.53073,0.838526,-0.648779,0.0719129,1.47122,-1.51207,1,-0.390669,0.324348,-0.182146,-0.325941,-0.0718998,2.43524e-10,-9.51508e-11,7.89894e-11,-4.4395e-11,-7.93788e-11,-1.75244e-11
39,3.9,-0.43073,0.799459,-0.616344,0.0536983,1.43863,-1.51926,1,-0.390669,0.324348,-0.182146,-0.325941,-0.0718998,2.43479e-10,-9.51993e-11,7.89996e-11,-4.43942e-11,-7.94132e-11,-1.75095e-11
40,4,-0.33073,0.760393,-0.583909,0.0354837,1.40603,-1.52645,1,-0.390669,0.324348,-0.182146,-0.325941,-0.0718998,2.43428e-10,-9.51808e-11,7.89376e-11,-4.43932e-11,-7.93786e-11,-1.75111e-11
41,4.1,-0.23073,0.721326,-0.551475,0.0172691,1.37344,-1.53364,1,-0.390669,0.324348,-0.182146,-0.325941,-0.0718998,2.43684e-10,-9.51596e-11,7.89455e-11,-4.43921e-11,-7.9339e-11,-1.75128e-11
42,4.2,-0.13073,0.682259,-0.51904,-0.000945502,1.34085,-1.54083,1,-0.390669,0.324348,-0.182146,-0.325941,-0.0718998,2.43641e-10,-9.53047e-11,7.90393e-11,-4.44332e-11,-7.94629e-11,-1.75361e-11
43,4.3,-0.0307305,0.643192,-0.486605,-0.0191601,1.30825,-1.54802,1,-0.390669,0.324348,-0.182146,-0.325941,-0.0718998,2.43958e-10,-9.52903e-11,7.9057e-11,-4.44352e-11,-7.94238e-11,-1.75402e-11
44,4.4,0.0692695,0.604125,-0.45417,-0.0373747,1.27566,-1.55521,1,-0.390669,0.324348,-0.182146,-0.325941,-0.0718998,2.43931e-10,-9.52732e-11,7.90778e-11,-4.44375e-11,-7.94777e-11,-1.75451e-11
45,4.5,0.16927,0.565058,-0.421736,-0.0555893,1.24306,-1.5624,1,-0.390669,0.324348,-0.182146,-0.325941,-0.0718998,2.439e-10,-9.52529e-11,7.89929e-11,-4.44404e-11,-7.94323e-11,-1.75509e-11
46,4.6,0.26927,0.525991,-0.389301,-0.0738039,1.21047,-1.56959,1,-0.390669,0.324348,-0.182146,-0.325941,-0.0718998,2.43862e-10,-9.53499e-11,7.90112e-11,-4.44438e-11,-7.94989e-11,-1.75276e-11
47,4.7,0.36927,0.486924,-0.356866,-0.0920185,1.17788,-1.57678,1,-0.390669,0.324348,-0.182146,-0.325941,-0.0718998,2.43814e-10,-9.5334e-11,7.90341e-11,-4.44481e-11,-7.9445e-11,-1.75327e-11
48,4.8,0.46927,0.447857,-0.324431,-0.110233,1.14528,-1.58397,1,-0.390669,0.324348,-0.182146,-0.325941,-0.0718998,2.43753e-10,-9.53136e-11,7.90634e-11,-4.44536e-11,-7.95321e-11,-1.75393e-11
49,4.9,0.56927,0.408791,-0.291996,-0.128448,1.11269,-1.59116,1,-0.390669,0.324348,-0.182146,-0.325941,-0.0718998,2.43671e-10,-9.52864e-11,7.89204e-11,-4.44609e-11,-7.9466e-11,-1.7548e-11
50,5,0.66927,0.369724,-0.259562,-0.146662,1.08009,-1.59835,1,-0.390669,0.324348,-0.182146,-0.325941,-0.0718998,2.43558e-10,-9.52487e-11,7.8939e-11,-4.44711e-11,-7.93739e-11,-1.75601e-11
51,5.1,0.76927,0.330657,-0.227127,-0.164877,1.0475,-1.60554,1,-0.390669,0.324348,-0.182146,-0.325941,-0.0718998,2.4339e-10,-9.5463e-11,7.89665e-11,-4.44863e-11,-7.95074e-11,-1.75782e-11
52,5.2,0.86927,0.29159,-0.194692,-0.183092,1.0149,-1.61273,1,-0.390669,0.324348,-0.182146,-0.325941,-0.0718998,2.44543e-10,-9.54578e-11,7.90118e-11,-4.45112e-11,-7.93694e-11,-1.76078e-11
53,5.3,0.96927,0.252523,-0.162257,-0.201306,0.982311,-1.61992,1,-0.390669,0.324348,-0.182146,-0.325941,-0.0718998,2.44683e-10,-9.54476e-11,7.91002e-11,-4.45598e-11,-7.96275e-11,-1.75339e-11
54,5.4,1.06927,0.213456,-0.129823,-0.219521,0.949717,-1.62711,1,-0.390669,0.324348,-0.182146,-0.325941,-0.0718998,2.45076e-10,-9.5419e-11,7.8344e-11,-4.46963e-11,-7.93484e-11,-1.75772e-11
55,5.5,1.16927,0.174389,-0.0973879,-0.237735,0.917123,-1.6343,1,-0.390669,0.324348,-0.182146,-0.325941,-0.0718998,2.52927e-10,-1.05386e-10,7.37704e-11,-4.74238e-11,-8.4309e-11,-1.84426e-11
56,5.6,1.26927,0.135322,-0.0649532,-0.25595,0.884529,-1.64149,1,-0.390669,0.324348,-0.182146,-0.325941,-0.0718998,2.43704e-10,-9.51934e-11,7.89891e-11,-4.44023e-11,-7.93956e-11,-1.75257e-11
57,5.7,1.36927,0.0962554,-0.0325184,-0.274165,0.851934,-1.64868,1,-0.390669,0.324348,-0.182146,-0.325941,-0.0718998,2.43674e-10,-9.51777e-11,7.89981e-11,-4.44019e-11,-7.94271e-11,-1.75279e-11
58,5.8,1.46927,0.0571885,-8.36409e-05,-0.292379,0.81934,-1.65587,1,-0.390669,0.324348,-0.182146,-0.325941,-0.0718998,2.43641e-10,-9.52249e-11,7.90081e-11,-4.44015e-11,-7.93973e-11,-1.75303e-11
59,5.9,1.56927,0.0181216,0.0323511,-0.310594,0.786746,-1.66306,1,-0.390669,0.324348,-0.182146,-0.325941,-0.0718998,2.43603e-10,-9.52091e-11,7.90194e-11,-4.44011e-11,-7.94328e-11,-1.75159e-11
60,6,1.66927,-0.0209453,0.0647859,-0.328808,0.754152,-1.67025,1,-0.390669,0.324348,-0.182146,-0.325941,-0.0718998,2.4356e-10,-9.51913e-11,7.89588e-11,-4.44006e-11,-7.93995e-11,-1.75178e-11
61,6.1,1.76927,-0.0600122,0.0972206,-0.347023,0.721558,-1.67744,1,-0.390669,0.324348,-0.182146,-0.325941,-0.0718998,2.43512e-10,-9.51709e-11,7.89682e-11,-4.44e-11,-7.94401e-11,-1.75201e-11
62,6.2,1.86927,-0.099079,0.129655,-0.365238,0.688964,-1.68463,1,-0.390669,0.324348,-0.182146,-0.325941,-0.0718998,2.43455e-10,-9.5232e-11,7.89791e-11,-4.43993e-11,-7.94023e-11,-1.75227e-11
63,6.3,1.96927,-0.138146,0.16209,-0.383452,0.65637,-1.69182,1,-0.390669,0.324348,-0.182146,-0.325941,-0.0718998,2.43756e-10,-9.52116e-11,7.89917e-11,-4.43985e-11,-7.93583e-11,-1.75257e-11
64,6.4,2.06927,-0.177213,0.194525,-0.401667,0.623776,-1.69901,1,-0.390669,0.324348,-0.182146,-0.325941,-0.0718998,2.43712e-10,-9.51875e-11,7.90067e-11,-4.43975e-11,-7.94062e-11,-1.75293e-11
65,6.5,2.16927,-0.21628,0.22696,-0.419881,0.591182,-1.7062,1,-0.390669,0.324348,-0.182146,-0.325941,-0.0718998,2.43659e-10,-9.51587e-11,7.89148e-11,-4.43964e-11,-7.93538e-11,-1.75336e-11
66,6.6,2.26927,-0.255347,0.259394,-0.438096,0.558588,-1.71339,1,-0.390669,0.324348,-0.182146,-0.325941,-0.0718998,2.43594e-10,-9.52453e-11,7.89245e-11,-4.4395e-11,-7.94117e-11,-1.75083e-11
67,6.7,2.36927,-0.294414,0.291829,-0.456311,0.525994,-1.72058,1,-0.390669,0.324348,-0.182146,-0.325941,-0.0718998,2.43514e-10,-9.52165e-11,7.89367e-11,-4.43933e-11,-7.93471e-11,-1.75111e-11
68,6.8,2.46927,-0.33348,0.324264,-0.474525,0.4934,-1.72777,1,-0.390669,0.324348,-0.182146,-0.325941,-0.0718998,2.4341e-10,-9.51796e-11,7.89523e-11,-4.43911e-11,-7.94204e-11,-1.75146e-11
69,6.9,2.56927,-0.372547,0.356699,-0.49274,0.460806,-1.73496,1,-0.390669,0.324348,-0.182146,-0.325941,-0.0718998,2.43273e-10,-9.51306e-11,7.87914e-11,-4.43882e-11,-7.9336e-11,-1.75193e-11
70,7,2.66927,-0.411614,0.389133,-0.510954,0.428212,-1.74215,1,-0.390669,0.324348,-0.182146,-0.325941,-0.0718998,2.43082e-10,-9.50625e-11,7.87847e-11,-4.43842e-11,-7.92187e-11,-1.75258e-11
71,7.1,2.76927,-0.450681,0.421568,-0.529169,0.395617,-1.74934,1,-0.390669,0.324348,-0.182146,-0.325941,-0.0718998,2.42799e-10,-9.5231e-11,7.87747e-11,-4.43782e-11,-7.93142e-11,-1.75355e-11
72,7.2,2.86927,-0.489748,0.454003,-0.547384,0.363023,-1.75653,1,-0.390669,0.324348,-0.182146,-0.325941,-0.0718998,2.43758e-10,-9.51513e-11,7.87582e-11,-4.43683e-11,-7.91146e-11,-1.75513e-11
73,7.3,2.96927,-0.528815,0.486438,-0.565598,0.330429,-1.76372,1,-0.390669,0.324348,-0.182146,-0.325941,-0.0718998,2.43527e-10,-9.49964e-11,7.87263e-11,-4.43491e-11,-7.92511e-11,-1.7451e-11
74,7.4,3.06927,-0.567882,0.518873,-0.583813,0.297835,-1.77091,1,-0.390669,0.324348,-0.182146,-0.325941,-0.0718998,2.42879e-10,-9.45635e-11,7.76416e-11,-4.42955e-11,-7.8637e-11,-1.74196e-11
75,7.5,3.16927,-0.606949,0.551307,-0.602027,0.265241,-1.7781,1,-0.390669,0.324348,-0.182146,-0.325941,-0.0718998,2.31e-10,-9.62499e-11,6.73749e-11,-4.33124e-11,-7.69999e-11,-1.68437e-11
76,7.6,3.26927,-0.646016,0.583742,-0.620242,0.232647,-1.78529,1,-0.390669,0.324348,-0.182146,-0.325941,-0.0718998,2.43809e-10,-9.52598e-11,7.90058e-11,-4.44081e-11,-7.94122e-11,-1.7531e-11
77,7.7,3.36927,-0.685082,0.616177,-0.638457,0.200053,-1.79248,1,-0.390669,0.324348,-0.182146,-0.325941,-0.0718998,2.43785e-10,-9.52477e-11,7.90157e-11,-4.44081e-11,-7.94445e-11,-1.75335e-11
78,7.8,3.46927,-0.724149,0.648612,-0.656671,0.167459,-1.79967,1,-0.390669,0.324348,-0.182146,-0.325941,-0.0718998,2.43758e-10,-9.52341e-11,7.90268e-11,-4.4408e-11,-7.94158e-11,-1.75363e-11
79,7.9,3.56927,-0.763216,0.681046,-0.674886,0.134865,-1.80686,1,-0.390669,0.324348,-0.182146,-0.325941,-0.0718998,2.43727e-10,-9.52189e-11,7.90393e-11,-4.4408e-11,-7.94524e-11,-1.75222e-11
80,8,3.66927,-0.802283,0.713481,-0.6931,0.102271,-1.81405,1,-0.390669,0.324348,-0.182146,-0.325941,-0.0718998,2.43693e-10,-9.52017e-11,7.898e-11,-4.44079e-11,-7.94204e-11,-1.75246e-11
81,8.1,3.76927,-0.84135,0.745916,-0.711315,0.0696767,-1.82124,1,-0.390669,0.324348,-0.182146,-0.325941,-0.0718998,2.43654e-10,-9.52607e-11,7.89909e-11,-4.44078e-11,-7.94625e-11,-1.75273e-11
82,8.2,3.86927,-0.880417,0.778351,-0.72953,0.0370826,-1.82843,1,-0.390669,0.324348,-0.182146,-0.325941,-0.0718998,2.43608e-10,-9.5244e-11,7.90035e-11,-4.44077e-11,-7.94264e-11,-1.75305e-11
83,8.3,3.96927,-0.919484,0.810785,-0.747744,0.00448852,-1.83562,1,-0.390669,0.324348,-0.182146,-0.325941,-0.0718998,2.43555e-10,-9.52246e-11,7.90181e-11,-4.44076e-11,-7.9476e-11,-1.75342e-11
84,8.4,4.06927,-0.958551,0.84322,-0.765959,-0.0281056,-1.84281,1,-0.390669,0.324348,-0.182146,-0.325941,-0.0718998,2.43892e-10,-9.52018e-11,7.90354e-11,-4.44075e-11,-7.94346e-11,-1.75385e-11
85,8.5,4.16927,-0.997618,0.875655,-0.784174,-0.0606996,-1.85,1,-0.390669,0.324348,-0.182146,-0.325941,-0.0718998,2.43857e-10,-9.5284e-11,7.89465e-11,-4.44074e-11,-7.93851e-11,-1.75437e-11
86,8.6,4.26927,-1.03668,0.90809,-0.802388,-0.0932937,-1.85719,1,-0.390669,0.324348,-0.182146,-0.325941,-0.0718998,2.43814e-10,-9.52626e-11,7.89597e-11,-4.44072e-11,-7.94464e-11,-1.75196e-11
87,8.7,4.36927,-1.07575,0.940524,-0.820603,-0.125888,-1.86438,1,-0.390669,0.324348,-0.182146,-0.325941,-0.0718998,2.4376e-10,-9.5236e-11,7.89762e-11,-4.4407e-11,-7.93861e-11,-1.75237e-11
88,8.8,4.46927,-1.11482,0.972959,-0.838817,-0.158482,-1.87157,1,-0.390669,0.324348,-0.182146,-0.325941,-0.0718998,2.43692e-10,-9.52018e-11,7.89973e-11,-4.44068e-11,-7.94647e-11,-1.7529e-11
89,8.9,4.56927,-1.15389,1.00539,-0.857032,-0.191076,-1.87876,1,-0.390669,0.324348,-0.182146,-0.325941,-0.0718998,2.43601e-10,-9.53378e-11,7.90253e-11,-4.44064e-11,-7.93878e-11,-1.7536e-11
90,9,4.66927,-1.19295,1.03783,-0.875247,-0.22367,-1.88595,1,-0.390669,0.324348,-0.182146,-0.325941,-0.0718998,2.43474e-10,-9.53102e-11,7.88476e-11,-4.44059e-11,-7.94974e-11,-1.75457e-11
91,9.1,4.76927,-1.23202,1.07026,-0.893461,-0.256264,-1.89314,1,-0.390669,0.324348,-0.182146,-0.325941,-0.0718998,2.43287e-10,-9.52693e-11,7.88528e-11,-4.44052e-11,-7.93911e-11,-1.75602e-11
92,9.2,4.86927,-1.27109,1.1027,-0.911676,-0.288858,-1.90033,1,-0.390669,0.324348,-0.182146,-0.325941,-0.0718998,2.42979e-10,-9.52021e-11,7.88615e-11,-4.4404e-11,-7.92167e-11,-1.7584e-11
93,9.3,4.96927,-1.31015,1.13513,-0.92989,-0.321452,-1.90752,1,-0.390669,0.324348,-0.182146,-0.325941,-0.0718998,2.4447e-10,-9.50718e-11,7.88782e-11,-4.44016e-11,-7.94006e-11,-1.74995e-11
94,9.4,5.06927,-1.34922,1.16757,-0.948105,-0.354046,-1.91471,1,-0.390669,0.324348,-0.182146,-0.325941,-0.0718998,2.44667e-10,-9.56963e-11,7.89248e-11,-4.43952e-11,-7.89248e-11,-1.75114e-11
95,9.5,5.16927,-1.38829,1.2,-0.96632,-0.38664,-1.9219,1,-0.390669,0.324348,-0.182146,-0.325941,-0.0718998,2.48e-10,-9.74284e-11,7.0857e-11,-4.42856e-11,-7.97141e-11,-1.77143e-11
96,9.6,5.26927,-1.42735,1.23244,-0.984534,-0.419234,-1.92909,1,-0.390669,0.324348,-0.182146,-0.325941,-0.0718998,2.43682e-10,-9.521e-11,7.89645e-11,-4.43849e-11,-7.93707e-11,-1.75219e-11
97,9.7,5.36927,-1.46642,1.26487,-1.00275,-0.451829,-1.93628,1,-0.390669,0.324348,-0.182146,-0.325941,-0.0718998,2.43651e-10,-9.51951e-11,7.89722e-11,-4.43836e-11,-7.94007e-11,-1.75239e-11
98,9.8,5.46904,-1.5054,1.29723,-1.02092,-0.484349,-1.94345,0.97868,-0.38234,0.317432,-0.178263,-0.318992,-0.0703669,-1,0.390669,-0.324348,0.182146,0.325941,0.0718998
99,9.9,5.56191,-1.54168,1.32735,-1.03784,-0.514618,-1.95013,0.87868,-0.343273,0.284998,-0.160048,-0.286398,-0.0631769,-1,0.390669,-0.324348,0.182146,0.325941,0.0718998
100,10,5.64478,-1.57405,1.35423,-1.05293,-0.541628,-1.95609,0.77868,-0.304206,0.252563,-0.141833,-0.253803,-0.0559869,-1,0.390669,-0.324348,0.182146,0.325941,0.0718998
101,10.1,5.71765,-1.60252,1.37787,-1.0662,-0.565379,-1.96133,0.67868,-0.265139,0.220128,-0.123619,-0.221209,-0.0487969,-1,0.390669,-0.324348,0.182146,0.325941,0.0718998
102,10.2,5.78051,-1.62708,1.39826,-1.07766,-0.58587,-1.96585,0.57868,-0.226072,0.187693,-0.105404,-0.188615,-0.041607,-1,0.390669,-0.324348,0.182146,0.325941,0.0718998
103,10.3,5.83338,-1.64773,1.41541,-1.08729,-0.603102,-1.96965,0.47868,-0.187005,0.155259,-0.0871896,-0.156021,-0.034417,-1,0.390669,-0.324348,0.182146,0.325941,0.0718998
104,10.4,5.87625,-1.66448,1.42931,-1.09509,-0.617074,-1.97273,0.37868,-0.147938,0.122824,-0.068975,-0.123427,-0.027227,-1,0.390669,-0.324348,0.182146,0.325941,0.0718998
105,10.5,5.90912,-1.67732,1.43997,-1.10108,-0.627787,-1.97509,0.27868,-0.108872,0.0903891,-0.0507604,-0.0908331,-0.020037,-1,0.390669,-0.324348,0.182146,0.325941,0.0718998
106,10.6,5.93199,-1.68626,1.44739,-1.10525,-0.635241,-1.97674,0.17868,-0.0698046,0.0579543,-0.0325458,-0.058239,-0.012847,-1,0.390669,-0.324348,0.182146,0.325941,0.0718998
107,10.7,5.94486,-1.6913,1.4516,-1.1076,-0.639432,-1.97765,0.0797933,-0.0364145,0.0355658,-0.0184707,-0.0248702,-0.00296988,-0.745859,-0.378656,0.99609,-0.367354,0.388539,0.407358
108,10.8,5.94793,-1.69524,1.45765,-1.11022,-0.63984,-1.97643,-0.0192127,-0.0329275,0.0684754,-0.0268664,0.0150383,0.0227271,-0.999915,0.286167,-0.131296,0.103673,0.348588,0.127046
109,10.9,5.94394,-1.70052,1.46897,-1.1146,-0.637056,-1.9725,-0.0579058,-0.0760843,0.163148,-0.0627699,0.0402682,0.0571651,-0.358371,-0.467473,0.999998,-0.37848,0.248238,0.360194
110,11,5.93633,-1.71047,1.49029,-1.12273,-0.631777,-1.96493,-0.0945705,-0.123032,0.263143,-0.0995438,0.0654096,0.0949514,-0.364509,-0.469753,0.999996,-0.366068,0.250542,0.379112
111,11.1,5.92499,-1.72514,1.5216,-1.13444,-0.623961,-1.9534,-0.132771,-0.170439,0.363136,-0.133875,0.0910846,0.136581,-0.407893,-0.48052,0.99992,-0.309798,0.265581,0.470957
112,11.2,5.90972,-1.74458,1.56291,-1.1494,-0.613546,-1.93745,-0.171674,-0.216711,0.459145,-0.162879,0.116386,0.182593,0.357837,0.464239,-1.00004,0.396619,-0.249187,-0.337038
113,11.3,5.89428,-1.76394,1.60383,-1.16363,-0.603134,-1.92075,-0.136914,-0.170479,0.359146,-0.122352,0.0917416,0.150403,0.371178,0.469575,-1.00004,0.367848,-0.253356,-0.380063
114,11.4,5.8824,-1.77866,1.63474,-1.17397,-0.595215,-1.90752,-0.100441,-0.12366,0.259143,-0.0849308,0.0665616,0.113457,0.382224,0.474331,-1.00003,0.342718,-0.256054,-0.416814
115,11.5,5.87425,-1.78865,1.65566,-1.18074,-0.589837,-1.89825,-0.0622463,-0.0761884,0.159136,-0.0508729,0.0409742,0.0715139,0.389093,0.477644,-1.00002,0.325515,-0.257234,-0.441283
116,11.6,5.86997,-1.79388,1.66657,-1.1842,-0.587025,-1.89331,-0.023278,-0.028376,0.0591323,-0.0185709,0.015249,0.0270494,0.392617,0.479432,-1.00003,0.316355,-0.257713,-0.45416
117,11.7,5.86794,-1.79453,1.6675,-1.18342,-0.585693,-1.89094,-0.00697231,0.0155973,-0.0380294,0.0260882,0.00456488,0.00811213,0.858538,0.289489,-0.429307,-0.310363,-0.562107,-0.998856
118,11.8,5.8679,-1.79096,1.65924,-1.17871,-0.585669,-1.8909,-0.000132821,0.0572136,-0.132377,0.0752332,8.67439e-05,0.00015546,-0.00100336,0.432203,-1,0.568327,0.000655281,0.00117438
119,11.9,5.86788,-1.78308,1.641,-1.16834,-0.585657,-1.89087,-0.000233157,0.100434,-0.232377,0.132066,0.000152272,0.000272897,-0.00100336,0.432203,-1,0.568327,0.000655281,0.00117438
120,12,5.86786,-1.77088,1.61277,-1.15229,-0.585639,-1.89084,-0.000333493,0.143654,-0.332377,0.188899,0.0002178,0.000390335,-0.00100336,0.432203,-1,0.568327,0.000655281,0.00117438
121,12.1,5.86782,-1.75435,1.57453,-1.13056,-0.585614,-1.8908,-0.000433829,0.186874,-0.432377,0.245731,0.000283328,0.000507773,-0.00100336,0.432203,-1,0.568327,0.000655281,0.00117438
122,12.2,5.86777,-1.7335,1.52629,-1.10315,-0.585582,-1.89074,-0.000534165,0.230095,-0.532377,0.302564,0.000348856,0.00062521,-0.00100336,0.432203,-1,0.568327,0.000655281,0.00117438
123,12.3,5.86771,-1.70833,1.46805,-1.07005,-0.585544,-1.89067,-0.000634501,0.273315,-0.632377,0.359397,0.000414384,0.000742648,-0.00100336,0.432203,-1,0.568327,0.000655281,0.00117438
124,12.4,5.86764,-1.67884,1.39981,-1.03127,-0.585499,-1.89059,-0.000734837,0.316535,-0.732377,0.41623,0.000479913,0.000860085,-0.00100336,0.432203,-1,0.568327,0.000655281,0.00117438
125,12.5,5.86756,-1.64502,1.32158,-0.986804,-0.585448,-1.8905,-0.000835173,0.359756,-0.832377,0.473062,0.000545441,0.000977523,-0.00100336,0.432203,-1,0.568327,0.000655281,0.00117438
126,12.6,5.86748,-1.60689,1.23334,-0.936656,-0.58539,-1.8904,-0.000935509,0.402976,-0.932377,0.529895,0.000610969,0.00109496,-0.00100336,0.432203,-1,0.568327,0.000655281,0.00117438
127,12.7,5.86738,-1.56466,1.13563,-0.881123,-0.585326,-1.89028,-0.00100336,0.432203,-1,0.568327,0.000655281,0.00117438,4.74189e-13,-2.0425e-10,4.7252e-10,-2.68516e-10,-3.09594e-13,-5.54984e-13
128,12.8,5.86728,-1.52144,1.03563,-0.82429,-0.585261,-1.89016,-0.00100336,0.432203,-1,0.568327,0.000655281,0.00117438,4.74276e-13,-2.04183e-10,4.72494e-10,-2.68507e-10,-3.09565e-13,-5.54977e-13
129,12.9,5.86718,-1.47822,0.935626,-0.767457,-0.585195,-1.89005,-0.00100336,0.432203,-1,0.568327,0.000655281,0.00117438,4.74103e-13,-2.04176e-10,4.72465e-10,-2.68497e-10,-3.09533e-13,-5.54968e-13
130,13,5.86708,-1.435,0.835626,-0.710625,-0.58513,-1.88993,-0.00100336,0.432203,-1,0.568327,0.000655281,0.00117438,4.74196e-13,-2.04243e-10,4.7258e-10,-2.68485e-10,-3.09641e-13,-5.54959e-13
131,13.1,5.86698,-1.39177,0.735626,-0.653792,-0.585064,-1.88981,-0.00100336,0.432203,-1,0.568327,0.000655281,0.00117438,4.74301e-13,-2.04241e-10,4.72554e-10,-2.68471e-10,-3.09609e-13,-5.54948e-13
132,13.2,5.86688,-1.34855,0.635626,-0.596959,-0.584999,-1.88969,-0.00100336,0.432203,-1,0.568327,0.000655281,0.00117438,4.74091e-13,-2.04152e-10,4.72523e-10,-2.68456e-10,-3.09573e-13,-5.54936e-13
133,13.3,5.86678,-1.30533,0.535626,-0.540126,-0.584933,-1.88958,-0.00100336,0.432203,-1,0.568327,0.000655281,0.00117438,4.74205e-13,-2.04142e-10,4.72487e-10,-2.68438e-10,-3.09531e-13,-5.54921e-13
134,13.4,5.86668,-1.26211,0.435626,-0.483294,-0.584868,-1.88946,-0.00100336,0.432203,-1,0.568327,0.000655281,0.00117438,4.7434e-13,-2.0423e-10,4.72646e-10,-2.68416e-10,-3.09677e-13,-5.54904e-13
135,13.5,5.86657,-1.21889,0.335626,-0.426461,-0.584802,-1.88934,-0.00100336,0.432203,-1,0.568327,0.000655281,0.00117438,4.74503e-13,-2.04225e-10,4.72615e-10,-2.6839e-10,-3.09637e-13,-5.54883e-13
136,13.6,5.86647,-1.17567,0.235626,-0.369628,-0.584736,-1.88922,-0.00100336,0.432203,-1,0.568327,0.000655281,0.00117438,4.74221e-13,-2.04218e-10,4.72577e-10,-2.68359e-10,-3.09588e-13,-5.54858e-13
137,13.7,5.86637,-1.13245,0.135626,-0.312795,-0.584671,-1.88911,-0.00100336,0.432203,-1,0.568327,0.000655281,0.00117438,4.73869e-13,-2.04072e-10,4.72254e-10,-2.6832e-10,-3.09526e-13,-5.54826e-13
138,13.8,5.86627,-1.08923,0.0356259,-0.255963,-0.584605,-1.88899,-0.00100336,0.432203,-1,0.568327,0.000655281,0.00117438,4.7465e-13,-2.042e-10,4.72786e-10,-2.68585e-10,-3.09755e-13,-5.55402e-13
139,13.9,5.86617,-1.04601,-0.0643741,-0.19913,-0.58454,-1.88887,-0.00100336,0.432203,-1,0.568327,0.000655281,0.00117438,4.74252e-13,-2.04187e-10,4.72758e-10,-2.68203e-10,-3.09701e-13,-5.54731e-13
140,14,5.86607,-1.00279,-0.164374,-0.142297,-0.584474,-1.88875,-0.00100336,0.432203,-1,0.568327,0.000655281,0.00117438,4.74558e-13,-2.04168e-10,4.72277e-10,-2.68109e-10,-3.09195e-13,-5.54656e-13
141,14.1,5.86597,-0.959572,-0.264374,-0.0854646,-0.584409,-1.88864,-0.00100336,0.432203,-1,0.568327,0.000655281,0.00117438,4.75016e-13,-2.04416e-10,4.7321e-10,-2.68519e-10,-3.09512e-13,-5.55618e-13
142,14.2,5.86587,-0.916352,-0.364374,-0.0286319,-0.584343,-1.88852,-0.00100336,0.432203,-1,0.568327,0.000655281,0.00117438,4.74346e-13,-2.04094e-10,4.73294e-10,-2.68468e-10,-3.09325e-13,-5.55784e-13
143,14.3,5.86577,-0.873131,-0.464374,0.0282008,-0.584278,-1.8884,-0.00100336,0.432203,-1,0.568327,0.000655281,0.00117438,4.75148e-13,-2.04003e-10,4.7237e-10,-2.68367e-10,-3.08953e-13,-5.56115e-13
144,14.4,5.86567,-0.829911,-0.564374,0.0850336,-0.584212,-1.88828,-0.00100336,0.432203,-1,0.568327,0.000655281,0.00117438,4.73312e-13,-2.03734e-10,4.71804e-10,-2.65926e-10,-3.07862e-13,-5.52896e-13
145,14.5,5.86557,-0.786691,-0.664374,0.141866,-0.584147,-1.88817,-0.00100336,0.432203,-1,0.568327,0.000655281,0.00117438,6.12844e-13,-2.19643e-10,5.02042e-10,-2.51021e-10,-3.06422e-13,-6.12844e-13
146,14.6,5.86547,-0.74347,-0.764374,0.198699,-0.584081,-1.88805,-0.00100336,0.432203,-1,0.568327,0.000655281,0.00117438,4.74318e-13,-2.04202e-10,4.72528e-10,-2.685e-10,-3.09571e-13,-5.54927e-13
147,14.7,5.86537,-0.70025,-0.864374,0.255532,-0.584016,-1.88793,-0.00100336,0.432203,-1,0.568327,0.000655281,0.00117438,4.74167e-13,-2.04198e-10,4.72504e-10,-2.6849e-10,-3.09542e-13,-5.54917e-13
148,14.8,5.86527,-0.65703,-0.964374,0.312364,-0.58395,-1.88781,-0.00100336,0.432203,-1,0.568327,0.000655281,0.00117438,4.73998e-13,-2.04193e-10,4.72477e-10,-2.6848e-10,-3.09511e-13,-5.54906e-13
149,14.9,5.86517,-0.613809,-1.06437,0.369197,-0.583885,-1.8877,-0.00100336,0.432203,-1,0.568327,0.000655281,0.00117438,4.74348e-13,-2.04257e-10,4.72586e-10,-2.68468e-10,-3.0961e-13,-5.54893e-13
150,15,5.86507,-0.570589,-1.16437,0.42603,-0.583819,-1.88758,-0.00100336,0.432203,-1,0.568327,0.000655281,0.00117438,4.74169e-13,-2.04181e-10,4.72561e-10,-2.68454e-10,-3.09579e-13,-5.54878e-13
151,15.1,5.86497,-0.528617,-1.26149,0.481222,-0.583755,-1.88747,-0.000927112,0.399359,-0.924007,0.525138,0.000605484,0.00108513,0.00100336,-0.432203,1,-0.568327,-0.000655281,-0.00117438
152,15.2,5.86488,-0.490842,-1.34889,0.530894,-0.583698,-1.88736,-0.000826776,0.356138,-0.824007,0.468306,0.000539956,0.000967694,0.00100336,-0.432203,1,-0.568327,-0.000655281,-0.00117438
153,15.3,5.86481,-0.457389,-1.42629,0.574883,-0.583647,-1.88727,-0.00072644,0.312918,-0.724007,0.411473,0.000474428,0.000850256,0.00100336,-0.432203,1,-0.568327,-0.000655281,-0.00117438
154,15.4,5.86474,-0.428258,-1.49369,0.613188,-0.583603,-1.88719,-0.000626104,0.269698,-0.624007,0.35464,0.0004089,0.000732819,0.00100336,-0.432203,1,-0.568327,-0.000655281,-0.00117438
155,15.5,5.86468,-0.40345,-1.55109,0.645811,-0.583566,-1.88713,-0.000525768,0.226477,-0.524007,0.297808,0.000343372,0.000615381,0.00100336,-0.432203,1,-0.568327,-0.000655281,-0.00117438
156,15.6,5.86463,-0.382963,-1.59849,0.67275,-0.583535,-1.88707,-0.000425432,0.183257,-0.424007,0.240975,0.000277844,0.000497944,0.00100336,-0.432203,1,-0.568327,-0.000655281,-0.00117438
157,15.7,5.8646,-0.366798,-1.63589,0.694006,-0.58351,-1.88703,-0.000325096,0.140037,-0.324007,0.184142,0.000212316,0.000380506,0.00100336,-0.432203,1,-0.568327,-0.000655281,-0.00117438
158,15.8,5.86457,-0.354956,-1.66329,0.709578,-0.583492,-1.88699,-0.00022476,0.0968166,-0.224007,0.127309,0.000146788,0.000263069,0.00100336,-0.432203,1,-0.568327,-0.000655281,-0.00117438
159,15.9,5.86388,-0.347438,-1.68123,0.72037,-0.583046,-1.88619,-0.0337931,0.0525801,-0.149345,0.114838,0.0220046,0.0398525,-0.847723,-0.526255,0.51948,0.460172,0.551991,0.999764
160,16,5.85758,-0.34252,-1.69785,0.735457,-0.57895,-1.87872,-0.0845061,0.060557,-0.21168,0.197069,0.0547237,0.1009,-0.412088,0.262582,-0.999946,0.979481,0.259872,0.520505
161,16.1,5.84708,-0.335165,-1.72399,0.760045,-0.572187,-1.86603,-0.125492,0.0860973,-0.31075,0.295122,0.0804347,0.153329,-0.412249,0.259007,-0.999935,0.987308,0.258946,0.526624
162,16.2,5.83251,-0.325508,-1.75976,0.794549,-0.562925,-1.84792,-0.165759,0.106451,-0.403998,0.395051,0.104604,0.209332,-0.377612,0.114773,-0.812003,1.00023,0.20901,0.60019
163,16.3,5.81403,-0.314217,-1.80432,0.839055,-0.551398,-1.82402,-0.203577,0.118663,-0.486251,0.495072,0.125623,0.26878,-0.390457,0.160611,-0.876402,1.00001,0.22415,0.574878
164,16.4,5.79192,-0.302135,-1.85652,0.893564,-0.537952,-1.79403,-0.238078,0.121517,-0.55586,0.595095,0.142642,0.331605,-0.279395,-0.137664,-0.467492,1.00028,0.0977286,0.691945
165,16.5,5.76657,-0.290294,-1.91498,0.958074,-0.523043,-1.75758,-0.268499,0.113935,-0.611525,0.695116,0.15488,0.397554,-0.204794,-0.292555,-0.25722,1.00006,0.0200113,0.73406
166,16.6,5.73843,-0.279835,-1.97818,1.03259,-0.50721,-1.71439,-0.293029,0.0928785,-0.649291,0.795134,0.160563,0.466872,-0.330023,-0.064656,-0.590855,1.00003,0.130654,0.632476
167,16.7,5.70806,-0.271973,-2.04453,1.1171,-0.491059,-1.6642,-0.312506,0.0605652,-0.672726,0.895145,0.160486,0.537752,-0.0227996,-0.622339,0.180753,1.00003,-0.160581,0.790435
168,16.8,5.67603,-0.26797,-2.11244,1.21162,-0.475244,-1.60685,-0.323509,0.0162329,-0.678692,0.995148,0.151766,0.610549,0.559535,-0.295654,0.386536,0.999848,-0.608849,0.905153
169,16.9,5.64541,-0.268949,-2.17674,1.3116,-0.461734,-1.5448,-0.291539,-0.0342689,-0.609651,1,0.121367,0.626035,0.201333,-0.254895,0.367845,5.12773e-05,-0.162284,0.0611665
170,17,5.61769,-0.274844,-2.23439,1.41157,-0.45099,-1.48174,-0.264025,-0.0814448,-0.546823,1,0.0946213,0.63478,0.281222,-0.443378,0.595779,2.53778e-05,-0.264174,0.0803483
171,17.1,5.59251,-0.285108,-2.2863,1.51157,-0.442761,-1.41792,-0.240107,-0.123097,-0.492599,1,0.0702531,0.641447,0.211041,-0.395458,0.502594,0.000116258,-0.22997,0.0579485
172,17.2,5.56959,-0.29932,-2.33312,1.61157,-0.436894,-1.35349,-0.218807,-0.16047,-0.444872,1,0.047316,0.647119,0.208806,-0.355393,0.453373,9.30702e-06,-0.227062,0.0556596
173,17.3,5.54866,-0.31707,-2.37547,1.71157,-0.433261,-1.2885,-0.200061,-0.1939,-0.402972,1,0.0254614,0.652507,0.173817,-0.31537,0.390965,7.23105e-05,-0.214373,0.0547574
174,17.4,5.52951,-0.33798,-2.41388,1.81157,-0.431785,-1.22297,-0.183316,-0.223698,-0.366076,1,0.00408391,0.658319,0.160698,-0.281005,0.347339,4.56353e-05,-0.21422,0.0626541
175,17.5,5.51195,-0.361697,-2.44883,1.91157,-0.432448,-1.15681,-0.168131,-0.250097,-0.333543,1,-0.0174296,0.66519,0.151191,-0.247944,0.308212,2.39947e-05,-0.220293,0.0765949
176,17.6,5.49584,-0.387892,-2.48072,2.01157,-0.435298,-1.08988,-0.154062,-0.273279,-0.30484,1,-0.0397852,0.673753,0.14607,-0.215965,0.273272,8.06841e-06,-0.234016,0.0970091
177,17.7,5.48121,-0.416047,-2.50972,2.11087,-0.440416,-1.02245,-0.13547,-0.282326,-0.269269,0.962774,-0.0613022,0.659142,0.276487,0.121693,0.504499,-1.00001,-0.175163,-0.568803
178,17.8,5.46892,-0.44355,-2.53429,2.20215,-0.447318,-0.959399,-0.110958,-0.266577,-0.223634,0.862782,-0.0759211,0.601726,0.239285,0.196186,0.415257,-0.998957,-0.125075,-0.579125
179,17.9,5.45893,-0.469157,-2.55468,2.28343,-0.455452,-0.902148,-0.089351,-0.244704,-0.185202,0.762787,-0.0859542,0.542994,0.212797,0.244154,0.357698,-1.00011,-0.0802459,-0.596836
180,18,5.45095,-0.492344,-2.57152,2.35471,-0.464343,-0.850868,-0.0705594,-0.218377,-0.152294,0.662792,-0.0911086,0.482219,0.186025,0.281888,0.309498,-1.00014,-0.0299919,-0.621169
181,18.1,5.44473,-0.512728,-2.58528,2.41599,-0.4735,-0.805795,-0.0539839,-0.188823,-0.123488,0.562798,-0.0912682,0.418741,0.160733,0.309083,0.272143,-1.00016,0.021365,-0.649989
182,18.2,5.44012,-0.530029,-2.59631,2.46727,-0.482436,-0.767233,-0.0387073,-0.156941,-0.0976402,0.462796,-0.0864694,0.351896,0.129638,0.325042,0.242238,-0.997853,0.085102,-0.689525
183,18.3,5.4369,-0.544072,-2.60489,2.50855,-0.490608,-0.735538,-0.0263036,-0.12378,-0.0742322,0.362792,-0.0759682,0.281384,0.10603,0.335001,0.224038,-1.00016,0.134992,-0.723863
184,18.4,5.43477,-0.554761,-2.61122,2.53982,-0.49745,-0.711079,-0.0165936,-0.0899241,-0.0525587,0.262763,-0.0600222,0.207225,0.0859794,0.340584,0.210254,-1.00014,0.184044,-0.758628
185,18.5,5.4335,-0.562048,-2.61544,2.5611,-0.502456,-0.694197,-0.00918433,-0.0557734,-0.0320679,0.162758,-0.0394568,0.129943,0.0656908,0.342337,0.200856,-1.0001,0.224219,-0.785964
186,18.6,5.43288,-0.565913,-2.61766,2.57238,-0.505233,-0.685164,-0.00332037,-0.0215158,-0.0122686,0.0627552,-0.015699,0.0504478,0.0541458,0.342803,0.196047,-1.00004,0.24742,-0.801948
187,18.7,5.43262,-0.567259,-2.61807,2.57373,-0.505594,-0.678516,-0.00133197,-0.00274956,0.00445116,-0.0364558,0.00872598,0.0666698,0.0389924,0.277977,0.184011,-0.999425,0.248471,-0.396391
188,18.8,5.4326,-0.566532,-2.61678,2.56509,-0.50349,-0.671395,-1.62357e-05,0.0129572,0.0207301,-0.136389,0.0332544,0.103122,-0.00011904,0.0950014,0.151992,-1,0.243819,0.756088
189,18.9,5.4326,-0.564761,-2.61394,2.54645,-0.498945,-0.657303,-2.81397e-05,0.0224573,0.0359294,-0.236389,0.0576363,0.178731,-0.00011904,0.0950014,0.151992,-1,0.243819,0.756088
190,19,5.4326,-0.56204,-2.60959,2.51781,-0.491963,-0.635649,-4.00436e-05,0.0319575,0.0511286,-0.336389,0.0820182,0.25434,-0.00011904,0.0950014,0.151992,-1,0.243819,0.756088
191,19.1,5.43259,-0.55837,-2.60372,2.47917,-0.482542,-0.606434,-5.19476e-05,0.0414576,0.0663278,-0.436389,0.1064,0.329949,-0.00011904,0.0950014,0.151992,-1,0.243819,0.756088
192,19.2,5.43259,-0.553749,-2.59633,2.43053,-0.470683,-0.569659,-6.38515e-05,0.0509578,0.081527,-0.536389,0.130782,0.405558,-0.00011904,0.0950014,0.151992,-1,0.243819,0.756088
193,19.3,5.43258,-0.548178,-2.58741,2.37189,-0.456385,-0.525323,-7.57555e-05,0.0604579,0.0967263,-0.636389,0.155164,0.481167,-0.00011904,0.0950014,0.151992,-1,0.243819,0.756088
194,19.4,5.43257,-0.541657,-2.57698,2.30325,-0.43965,-0.473426,-8.76594e-05,0.069958,0.111925,-0.736389,0.179546,0.556776,-0.00011904,0.0950014,0.151992,-1,0.243819,0.756088
195,19.5,5.43256,-0.534186,-2.56503,2.22461,-0.420476,-0.413968,-9.95634e-05,0.0794582,0.127125,-0.836389,0.203928,0.632384,-0.00011904,0.0950014,0.151992,-1,0.243819,0.756088
196,19.6,5.43255,-0.525766,-2.55156,2.13597,-0.398864,-0.346949,-0.000111467,0.0889583,0.142324,-0.936389,0.22831,0.707993,-0.00011904,0.0950014,0.151992,-1,0.243819,0.756088
197,19.7,5.43254,-0.516458,-2.53666,2.038,-0.374976,-0.27287,-0.00011904,0.0950014,0.151992,-1,0.243819,0.756088,4.29068e-14,-3.42328e-11,-5.47724e-11,3.60549e-10,-8.78731e-11,-2.72568e-10
198,19.8,5.43253,-0.506958,-2.52146,1.938,-0.350594,-0.197261,-0.00011904,0.0950014,0.151992,-1,0.243819,0.756088,4.28863e-14,-3.4213e-11,-5.47527e-11,3.60401e-10,-8.78312e-11,-2.7251e-10
199,19.9,5.43252,-0.497457,-2.50627,1.838,-0.326212,-0.121652,-0.00011904,0.0950014,0.151992,-1,0.243819,0.756088,4.29263e-14,-3.42553e-11,-5.47951e-11,3.60751e-10,-8.7913e-11,-2.72704e-10
200,20,5.4325,-0.487957,-2.49107,1.738,-0.30183,-0.0460433,-0.00011904,0.0950014,0.151992,-1,0.243819,0.756088,4.29029e-14,-3.42331e-11,-5.4773e-11,3.60589e-10,-8.78651e-11,-2.72648e-10
201,20.1,5.43249,-0.478457,-2.47587,1.638,-0.277448,0.0295656,-0.00011904,0.0950014,0.151992,-1,0.243819,0.756088,4.2872e-14,-3.4204e-11,-5.4744e-11,3.60376e-10,-8.78019e-11,-2.72574e-10
202,20.2,5.43248,-0.468957,-2.46067,1.538,-0.253066,0.105174,-0.00011904,0.0950014,0.151992,-1,0.243819,0.756088,4.28807e-14,-3.42162e-11,-5.47039e-11,3.60082e-10,-8.78197e-11,-2.72472e-10
203,20.3,5.43247,-0.459457,-2.44547,1.438,-0.228684,0.180783,-0.00011904,0.0950014,0.151992,-1,0.243819,0.756088,4.28935e-14,-3.4234e-11,-5.47745e-11,3.60685e-10,-8.78458e-11,-2.72839e-10
204,20.4,5.43246,-0.449957,-2.43027,1.338,-0.204302,0.256392,-0.00011904,0.0950014,0.151992,-1,0.243819,0.756088,4.29139e-14,-3.41786e-11,-5.47194e-11,3.60306e-10,-8.78877e-11,-2.72755e-10
205,20.5,5.43244,-0.440457,-2.41507,1.238,-0.17992,0.332001,-0.00011904,0.0950014,0.151992,-1,0.243819,0.756088,4.28342e-14,-3.40748e-11,-5.46163e-11,3.60565e-10,-8.77245e-11,-2.72598e-10
206,20.6,5.43243,-0.430956,-2.39987,1.138,-0.155538,0.40761,-0.00011904,0.0950014,0.151992,-1,0.243819,0.756088,4.28406e-14,-3.4239e-11,-5.47824e-11,3.61222e-10,-8.77375e-11,-2.73912e-10
207,20.7,5.43242,-0.421456,-2.38467,1.038,-0.131156,0.483219,-0.00011904,0.0950014,0.151992,-1,0.243819,0.756088,4.28897e-14,-3.36401e-11,-5.4198e-11,3.58828e-10,-8.78381e-11,-2.76596e-10
208,20.8,5.43241,-0.411956,-2.36947,0.937997,-0.106775,0.558828,-0.00011904,0.0950014,0.151992,-1,0.243819,0.756088,4.29031e-14,-3.42434e-11,-5.47722e-11,3.60432e-10,-8.78655e-11,-2.72567e-10
209,20.9,5.4324,-0.402456,-2.35427,0.837997,-0.0823926,0.634436,-0.00011904,0.0950014,0.151992,-1,0.243819,0.756088,4.28925e-14,-3.42339e-11,-5.47621e-11,3.60472e-10,-8.78741e-11,-2.72537e-10
210,21,5.43238,-0.392956,-2.33907,0.737997,-0.0580107,0.710045,-0.00011904,0.0950014,0.151992,-1,0.243819,0.756088,4.2912e-14,-3.42394e-11,-5.4783e-11,3.60516e-10,-8.78837e-11,-2.72632e-10
211,21.1,5.43237,-0.383456,-2.32387,0.637997,-0.0336288,0.785654,-0.00011904,0.0950014,0.151992,-1,0.243819,0.756088,4.29006e-14,-3.42455e-11,-5.47724e-11,3.60565e-10,-8.78945e-11,-2.72602e-10
212,21.2,5.43236,-0.373956,-2.30868,0.537997,-0.00924684,0.861263,-0.00011904,0.0950014,0.151992,-1,0.243819,0.756088,4.28878e-14,-3.42343e-11,-5.47604e-11,3.60476e-10,-8.78704e-11,-2.72569e-10
213,21.3,5.43235,-0.364455,-2.29348,0.437997,0.0151351,0.936872,-0.00011904,0.0950014,0.151992,-1,0.243819,0.756088,4.2911e-14,-3.42409e-11,-5.47855e-11,3.60529e-10,-8.78818e-11,-2.72686e-10
214,21.4,5.43234,-0.354955,-2.27828,0.337997,0.039517,1.01248,-0.00011904,0.0950014,0.151992,-1,0.243819,0.756088,4.28971e-14,-3.42277e-11,-5.47727e-11,3.6059e-10,-8.78949e-11,-2.72654e-10
215,21.5,5.43233,-0.345455,-2.26308,0.237997,0.0638989,1.08809,-0.00011904,0.0950014,0.151992,-1,0.243819,0.756088,4.29028e-14,-3.42349e-11,-5.47578e-11,3.60481e-10,-8.7865e-11,-2.72616e-10
216,21.6,5.43231,-0.335955,-2.24788,0.137997,0.0882808,1.1637,-0.00011904,0.0950014,0.151992,-1,0.243819,0.756088,4.29096e-14,-3.42433e-11,-5.47893e-11,3.60549e-10,-8.78789e-11,-2.72768e-10
217,21.7,5.4323,-0.326455,-2.23268,0.037997,0.112663,1.23931,-0.00011904,0.0950014,0.151992,-1,0.243819,0.756088,4.29178e-14,-3.42265e-11,-5.47732e-11,3.6063e-10,-8.78956e-11,-2.72519e-10
218,21.8,5.43229,-0.316955,-2.21748,-0.062003,0.137045,1.31492,-0.00011904,0.0950014,0.151992,-1,0.243819,0.756088,4.28985e-14,-3.42359e-11,-5.47535e-11,3.6049e-10,-8.78561e-11,-2.72455e-10
219,21.9,5.43228,-0.307455,-2.20228,-0.162003,0.161427,1.39052,-0.00011904,0.0950014,0.151992,-1,0.243819,0.756088,4.29072e-14,-3.42475e-11,-5.4796e-11,3.60851e-10,-8.79408e-11,-2.72643e-10
220,22,5.43227,-0.297954,-2.18708,-0.262003,0.185809,1.46613,-0.00011904,0.0950014,0.151992,-1,0.243819,0.756088,4.29183e-14,-3.42243e-11,-5.4774e-11,3.60703e-10,-8.78968e-11,-2.72579e-10
221,22.1,5.43225,-0.288454,-2.17188,-0.362003,0.21019,1.54174,-0.00011904,0.0950014,0.151992,-1,0.243819,0.756088,4.289e-14,-3.42377e-11,-5.47452e-11,3.60509e-10,-8.78387e-11,-2.72494e-10
222,22.2,5.43224,-0.278954,-2.15668,-0.462003,0.234572,1.61735,-0.00011904,0.0950014,0.151992,-1,0.243819,0.756088,4.29531e-14,-3.42563e-11,-5.48101e-11,3.61077e-10,-8.79681e-11,-2.72795e-10
223,22.3,5.43223,-0.269454,-2.14148,-0.562003,0.258954,1.69296,-0.00011904,0.0950014,0.151992,-1,0.243819,0.756088,4.29197e-14,-3.4219e-11,-5.47762e-11,3.60878e-10,-8.78996e-11,-2.72721e-10
224,22.4,5.43222,-0.259954,-2.12628,-0.662003,0.283336,1.76857,-0.00011904,0.0950014,0.151992,-1,0.243819,0.756088,4.28661e-14,-3.41591e-11,-5.47218e-11,3.60559e-10,-8.77898e-11,-2.72602e-10
225,22.5,5.43221,-0.250454,-2.11109,-0.762003,0.307718,1.84418,-0.00011904,0.0950014,0.151992,-1,0.243819,0.756088,4.3001e-14,-3.4288e-11,-5.48608e-11,3.61889e-10,-8.80661e-11,-2.73342e-10
226,22.6,5.43219,-0.240954,-2.09589,-0.862003,0.3321,1.91979,-0.00011904,0.0950014,0.151992,-1,0.243819,0.756088,4.29276e-14,-3.41894e-11,-5.4788e-11,3.61856e-10,-8.79156e-11,-2.73515e-10
227,22.7,5.43218,-0.231453,-2.08069,-0.962003,0.356482,1.9954,-0.00011904,0.0950014,0.151992,-1,0.243819,0.756088,4.23756e-14,-3.34485e-11,-5.42407e-11,3.61605e-10,-8.67852e-11,-2.7482e-10
228,22.8,5.43217,-0.221953,-2.06549,-1.062,0.380864,2.071,-0.00011904,0.0950014,0.151992,-1,0.243819,0.756088,4.29089e-14,-3.424e-11,-5.47725e-11,3.60476e-10,-8.78774e-11,-2.72541e-10
229,22.9,5.43216,-0.212726,-2.05073,-1.15913,0.404545,2.14444,-0.000110015,0.0877996,0.14047,-0.924192,0.225336,0.698771,0.00011904,-0.0950014,-0.151992,1,-0.243819,-0.756088
230,23,5.43215,-0.204421,-2.03744,-1.24655,0.42586,2.21054,-9.81114e-05,0.0782994,0.125271,-0.824192,0.200954,0.623162,0.00011904,-0.0950014,-0.151992,1,-0.243819,-0.756088
231,23.1,5.43214,-0.197066,-2.02567,-1.32397,0.444736,2.26907,-8.62075e-05,0.0687993,0.110072,-0.724192,0.176572,0.547553,0.00011904,-0.0950014,-0.151992,1,-0.243819,-0.756088
232,23.2,5.43213,-0.190661,-2.01542,-1.39139,0.461174,2.32005,-7.43035e-05,0.0592992,0.0948724,-0.624192,0.15219,0.471945,0.00011904,-0.0950014,-0.151992,1,-0.243819,-0.756088
233,23.3,5.43212,-0.185206,-2.0067,-1.44881,0.475174,2.36346,-6.23996e-05,0.049799,0.0796732,-0.524192,0.127808,0.396336,0.00011904,-0.0950014,-0.151992,1,-0.243819,-0.756088
234,23.4,5.43212,-0.180702,-1.99949,-1.49623,0.486736,2.39932,-5.04956e-05,0.0402989,0.0644739,-0.424192,0.103426,0.320727,0.00011904,-0.0950014,-0.151992,1,-0.243819,-0.756088
235,23.5,5.43211,-0.177147,-1.9938,-1.53364,0.495859,2.42761,-3.85917e-05,0.0307987,0.0492747,-0.324192,0.0790443,0.245118,0.00011904,-0.0950014,-0.151992,1,-0.243819,-0.756088
236,23.6,5.43211,-0.174542,-1.98963,-1.56106,0.502545,2.44834,-2.66877e-05,0.0212986,0.0340755,-0.224192,0.0546624,0.169509,0.00011904,-0.0950014,-0.151992,1,-0.243819,-0.756088
237,23.7,5.43211,-0.172887,-1.98699,-1.57848,0.506792,2.46151,-1.47838e-05,0.0117984,0.0188763,-0.124192,0.0302805,0.0939004,0.00011904,-0.0950014,-0.151992,1,-0.243819,-0.756088
238,23.8,5.43206,-0.171744,-1.98624,-1.58592,0.509041,2.46848,-0.00197346,0.0195499,-0.0113888,-0.0246944,0.0231962,0.0716031,-0.0323282,0.188376,-0.401173,0.998996,0.0392361,0.116259
239,23.9,5.43173,-0.169071,-1.98914,-1.5836,0.511366,2.47562,-0.00514145,0.0402453,-0.0503783,0.0637899,0.0309006,0.0942274,-0.0489854,0.426316,-0.529923,0.670814,0.335961,1
240,24,5.431,-0.162921,-1.99679,-1.57391,0.516189,2.49004,-0.00893426,0.0826762,-0.102346,0.129522,0.0662003,0.194231,-0.0217352,0.421904,-0.506452,0.640103,0.375884,1.00003
241,24.1,5.43007,-0.152557,-2.0095,-1.55783,0.52479,2.51447,-0.0090199,0.124457,-0.151091,0.191025,0.106989,0.294238,0.0221786,0.411996,-0.464561,0.584601,0.445566,1.00003
242,24.2,5.42939,-0.138072,-2.02684,-1.53593,0.537882,2.54889,-0.00320269,0.164981,-0.194621,0.245679,0.156681,0.394246,0.0936474,0.3953,-0.400934,0.501457,0.553849,1.00004
243,24.3,5.42972,-0.119635,-2.04817,-1.50903,0.556567,2.59332,0.0116137,0.203285,-0.230392,0.29033,0.219685,0.494252,0.202392,0.36451,-0.305592,0.380671,0.715133,1.00002
244,24.4,5.43214,-0.0975506,-2.07254,-1.47834,0.582453,2.64774,0.0394069,0.237515,-0.254726,0.320817,0.301774,0.594249,0.36892,0.312125,-0.167873,0.21596,0.946716,0.999944
245,24.5,5.43818,-0.072535,-2.09839,-1.44572,0.617572,2.71174,0.0838959,0.258478,-0.2564,0.324515,0.401142,0.678508,0.518536,0.0766708,0.162127,-0.171596,1.0005,0.61591
246,24.6,5.44935,-0.0467135,-2.1227,-1.41469,0.662685,2.78205,0.141275,0.254077,-0.225046,0.290897,0.501111,0.721871,0.622275,-0.159408,0.453481,-0.47995,1.00015,0.27735
247,24.7,5.46673,-0.0224148,-2.14258,-1.38834,0.717788,2.85524,0.206203,0.227579,-0.168149,0.23192,0.59769,0.734797,0.369269,-0.675691,0.90211,-0.998292,0.102639,-0.999558
248,24.8,5.48889,-0.00293995,-2.15517,-1.36976,0.777567,2.92372,0.233117,0.162934,-0.0865278,0.143182,0.592505,0.634824,0.170374,-0.608781,0.72336,-0.774898,-0.205768,-0.999582
249,24.9,5.5126,0.010463,-2.16053,-1.35898,0.835222,2.9822,0.237205,0.106891,-0.0240478,0.0761323,0.555267,0.534809,-0.0910938,-0.509635,0.526002,-0.568618,-0.53854,-1.00021
250,25,5.5356,0.0188407,-2.16069,-1.35384,0.887625,3.03068,0.219527,0.0628591,0.0171893,0.0299932,0.48825,0.434768,-0.289035,-0.37841,0.310148,-0.367224,-0.810994,-1.00035
251,25.1,5.5559,0.0234764,-2.15779,-1.35235,0.932063,3.06916,0.184107,0.0320294,0.0375427,0.00263213,0.397078,0.334784,-0.427158,-0.246121,0.111645,-0.193539,-0.999687,-0.988778
252,25.2,5.57219,0.025679,-2.15377,-1.35279,0.966771,3.09786,0.140997,0.0138899,0.0405055,-0.00920739,0.297096,0.241162,-0.450401,-0.131193,-0.0316154,-0.0622486,-0.999867,-0.884618
253,25.3,5.58401,0.0265542,-2.15006,-1.35386,0.991481,3.11767,0.0949948,0.00477565,0.0323566,-0.0109617,0.197102,0.156145,-0.473042,-0.0596612,-0.119807,0.0167704,-0.999952,-0.819701
254,25.4,5.59113,0.0268145,-2.14752,-1.35478,1.00619,3.12925,0.0471669,0.00109157,0.0175125,-0.00677524,0.0971044,0.0759228,-0.483757,-0.0196944,-0.169701,0.0605184,-0.999986,-0.78805
255,25.5,5.59305,0.0270635,-2.14644,-1.35533,1.01185,3.13317,-0.0208849,0.0100823,0.0097343,-0.00980854,0.0412127,0.00768553,-0.998234,0.208424,0.00107778,-0.128026,-0.240411,-0.713203
256,25.6,5.5885,0.028207,-2.14611,-1.35615,1.01233,3.13069,-0.0797272,0.016607,1.90549e-05,-0.010176,-0.0195203,-0.0571183,-1,0.208298,0.000239001,-0.127635,-0.244839,-0.716422
257,25.7,5.57553,0.0309092,-2.1461,-1.35781,1.00915,3.1214,-0.179727,0.0374368,4.2955e-05,-0.0229395,-0.0440042,-0.128761,-1,0.208298,0.000239001,-0.127635,-0.244839,-0.716422
258,25.8,5.55256,0.0356944,-2.1461,-1.36074,1.00353,3.10494,-0.279727,0.0582666,6.68552e-05,-0.035703,-0.0684882,-0.200403,-1,0.208298,0.000239001,-0.127635,-0.244839,-0.716422
259,25.9,5.51958,0.0425625,-2.14609,-1.36495,0.995454,3.08132,-0.379727,0.0790963,9.07553e-05,-0.0484665,-0.0929721,-0.272045,-1,0.208298,0.000239001,-0.127635,-0.244839,-0.716422
260,26,5.47661,0.0515136,-2.14608,-1.37043,0.984933,3.05053,-0.479727,0.0999261,0.000114655,-0.06123,-0.117456,-0.343687,-1,0.208298,0.000239001,-0.127635,-0.244839,-0.716422
261,26.1,5.42364,0.0625477,-2.14607,-1.3772,0.971963,3.01258,-0.579727,0.120756,0.000138556,-0.0739935,-0.14194,-0.415329,-1,0.208298,0.000239001,-0.127635,-0.244839,-0.716422
262,26.2,5.36067,0.0756648,-2.14605,-1.38523,0.956545,2.96746,-0.679727,0.141586,0.000162456,-0.086757,-0.166424,-0.486972,-1,0.208298,0.000239001,-0.127635,-0.244839,-0.716422
263,26.3,5.28769,0.0908649,-2.14604,-1.39455,0.938678,2.91518,-0.779727,0.162415,0.000186356,-0.0995205,-0.190908,-0.558614,-1,0.208298,0.000239001,-0.127635,-0.244839,-0.716422
264,26.4,5.20472,0.108148,-2.14602,-1.40514,0.918363,2.85574,-0.879727,0.183245,0.000210256,-0.112284,-0.215392,-0.630256,-1,0.208298,0.000239001,-0.127635,-0.244839,-0.716422
265,26.5,5.11175,0.127514,-2.14599,-1.417,0.8956,2.78913,-0.979727,0.204075,0.000234156,-0.125047,-0.239876,-0.701898,-1,0.208298,0.000239001,-0.127635,-0.244839,-0.716422
266,26.6,5.01195,0.148301,-2.14597,-1.42974,0.871166,2.71764,-1,0.208298,0.000239001,-0.127635,-0.244839,-0.716422,1.08291e-09,-2.2553e-10,-2.58797e-13,1.38198e-10,2.65159e-10,7.75712e-10
267,26.7,4.91195,0.169131,-2.14595,-1.4425,0.846683,2.646,-1,0.208298,0.000239001,-0.127635,-0.244839,-0.716422,1.08306e-09,-2.25601e-10,-2.58819e-13,1.38195e-10,2.65196e-10,7.7601e-10
268,26.8,4.81195,0.18996,-2.14592,-1.45527,0.822199,2.57435,-1,0.208298,0.000239001,-0.127635,-0.244839,-0.716422,1.083e-09,-2.25565e-10,-2.58785e-13,1.38192e-10,2.65179e-10,7.75884e-10
269,26.9,4.71195,0.21079,-2.1459,-1.46803,0.797715,2.50271,-1,0.208298,0.000239001,-0.127635,-0.244839,-0.716422,1.08293e-09,-2.25519e-10,-2.58743e-13,1.38188e-10,2.6509e-10,7.75726e-10
270,27,4.61195,0.23162,-2.14587,-1.4808,0.773231,2.43107,-1,0.208298,0.000239001,-0.127635,-0.244839,-0.716422,1.08316e-09,-2.2554e-10,-2.58842e-13,1.38183e-10,2.65211e-10,7.75838e-10
271,27.1,4.51195,0.25245,-2.14585,-1.49356,0.748747,2.35943,-1,0.208298,0.000239001,-0.127635,-0.244839,-0.716422,1.08309e-09,-2.25475e-10,-2.58796e-13,1.38177e-10,2.65098e-10,7.7562e-10
272,27.2,4.41195,0.27328,-2.14583,-1.50632,0.724263,2.28778,-1,0.208298,0.000239001,-0.127635,-0.244839,-0.716422,1.08343e-09,-2.25605e-10,-2.58838e-13,1.38168e-10,2.65269e-10,7.76194e-10
273,27.3,4.31195,0.294109,-2.1458,-1.51909,0.699779,2.21614,-1,0.208298,0.000239001,-0.127635,-0.244839,-0.716422,1.08285e-09,-2.25525e-10,-2.58767e-13,1.38154e-10,2.65114e-10,7.75957e-10
274,27.4,4.21195,0.314939,-2.14578,-1.53185,0.675295,2.1445,-1,0.208298,0.000239001,-0.127635,-0.244839,-0.716422,1.08261e-09,-2.25392e-10,-2.58651e-13,1.38132e-10,2.65039e-10,7.75566e-10
275,27.5,4.11195,0.335769,-2.14575,-1.54461,0.650811,2.07286,-1,0.208298,0.000239001,-0.127635,-0.244839,-0.716422,1.08321e-09,-2.25669e-10,-2.58946e-13,1.38088e-10,2.6543e-10,7.75872e-10
276,27.6,4.01195,0.356599,-2.14573,-1.55738,0.626327,2.00122,-1,0.208298,0.000239001,-0.127635,-0.244839,-0.716422,1.08287e-09,-2.25424e-10,-2.5878e-13,1.37962e-10,2.6499e-10,7.74667e-10
277,27.7,3.91195,0.377428,-2.14571,-1.57014,0.601843,1.92957,-1,0.208298,0.000239001,-0.127635,-0.244839,-0.716422,1.10566e-09,-2.26158e-10,-2.61757e-13,1.34019e-10,2.76415e-10,8.04117e-10
278,27.8,3.81195,0.398258,-2.14568,-1.5829,0.57736,1.85793,-1,0.208298,0.000239001,-0.127635,-0.244839,-0.716422,1.08297e-09,-2.25551e-10,-2.58799e-13,1.38194e-10,2.65126e-10,7.75795e-10
279,27.9,3.71195,0.419088,-2.14566,-1.59567,0.552876,1.78629,-1,0.208298,0.000239001,-0.127635,-0.244839,-0.716422,1.08306e-09,-2.25591e-10,-2.58841e-13,1.38223e-10,2.65176e-10,7.75842e-10
280,28,3.61195,0.439918,-2.14564,-1.60843,0.528392,1.71465,-1,0.208298,0.000239001,-0.127635,-0.244839,-0.716422,1.08303e-09,-2.25571e-10,-2.58824e-13,1.38223e-10,2.65166e-10,7.75895e-10
281,28.1,3.51195,0.460748,-2.14561,-1.62119,0.503908,1.643,-1,0.208298,0.000239001,-0.127635,-0.244839,-0.716422,1.08286e-09,-2.25549e-10,-2.58805e-13,1.38189e-10,2.6512e-10,7.75817e-10
282,28.2,3.41195,0.481577,-2.14559,-1.63396,0.479424,1.57136,-1,0.208298,0.000239001,-0.127635,-0.244839,-0.716422,1.08296e-09,-2.25561e-10,-2.5882e-13,1.38223e-10,2.65179e-10,7.75875e-10
283,28.3,3.31195,0.502407,-2.14556,-1.64672,0.45494,1.49972,-1,0.208298,0.000239001,-0.127635,-0.244839,-0.716422,1.08291e-09,-2.25534e-10,-2.58799e-13,1.38184e-10,2.65128e-10,7.75784e-10
284,28.4,3.21195,0.523237,-2.14554,-1.65948,0.430456,1.42808,-1,0.208298,0.000239001,-0.127635,-0.244839,-0.716422,1.08303e-09,-2.25589e-10,-2.58857e-13,1.38223e-10,2.65196e-10,7.75849e-10
285,28.5,3.11195,0.544067,-2.14552,-1.67225,0.405972,1.35644,-1,0.208298,0.000239001,-0.127635,-0.244839,-0.716422,1.08299e-09,-2.25561e-10,-2.58834e-13,1.38223e-10,2.65138e-10,7.75925e-10
286,28.6,3.01195,0.564897,-2.14549,-1.68501,0.381488,1.28479,-1,0.208298,0.000239001,-0.127635,-0.244839,-0.716422,1.08293e-09,-2.25527e-10,-2.58808e-13,1.38173e-10,2.6512e-10,7.75814e-10
287,28.7,2.91195,0.585726,-2.14547,-1.69777,0.357004,1.21315,-1,0.208298,0.000239001,-0.127635,-0.244839,-0.716422,1.08309e-09,-2.25597e-10,-2.58831e-13,1.38223e-10,2.65153e-10,7.75901e-10
288,28.8,2.81195,0.606556,-2.14544,-1.71054,0.33252,1.14151,-1,0.208298,0.000239001,-0.127635,-0.244839,-0.716422,1.08303e-09,-2.25561e-10,-2.58798e-13,1.38162e-10,2.65132e-10,7.75763e-10
289,28.9,2.71195,0.627386,-2.14542,-1.7233,0.308036,1.06987,-1,0.208298,0.000239001,-0.127635,-0.244839,-0.716422,1.08324e-09,-2.25584e-10,-2.58825e-13,1.38223e-10,2.65243e-10,7.75865e-10
290,29,2.61195,0.648216,-2.1454,-1.73607,0.283553,0.998225,-1,0.208298,0.000239001,-0.127635,-0.244839,-0.716422,1.08319e-09,-2.25535e-10,-2.58783e-13,1.38223e-10,2.6515e-10,7.75997e-10
291,29.1,2.51195,0.669045,-2.14537,-1.74883,0.259069,0.926583,-1,0.208298,0.000239001,-0.127635,-0.244839,-0.716422,1.08277e-09,-2.2547e-10,-2.58727e-13,1.38132e-10,2.65119e-10,7.75806e-10
292,29.2,2.41195,0.689875,-2.14535,-1.76159,0.234585,0.85494,-1,0.208298,0.000239001,-0.127635,-0.244839,-0.716422,1.08304e-09,-2.25598e-10,-2.58862e-13,1.38224e-10,2.65184e-10,7.75977e-10
293,29.3,2.31195,0.710705,-2.14532,-1.77436,0.210101,0.783298,-1,0.208298,0.000239001,-0.127635,-0.244839,-0.716422,1.08291e-09,-2.25516e-10,-2.58797e-13,1.38224e-10,2.65145e-10,7.75688e-10
294,29.4,2.21195,0.731535,-2.1453,-1.78712,0.185617,0.711656,-1,0.208298,0.000239001,-0.127635,-0.244839,-0.716422,1.08342e-09,-2.25562e-10,-2.58867e-13,1.38224e-10,2.65261e-10,7.75932e-10
295,29.5,2.11195,0.752365,-2.14528,-1.79988,0.161133,0.640014,-1,0.208298,0.000239001,-0.127635,-0.244839,-0.716422,1.08334e-09,-2.25652e-10,-2.58744e-13,1.38225e-10,2.65221e-10,7.76413e-10
296,29.6,2.01195,0.773194,-2.14525,-1.81265,0.136649,0.568371,-1,0.208298,0.000239001,-0.127635,-0.244839,-0.716422,1.08312e-09,-2.25393e-10,-2.5839e-13,1.37711e-10,2.65107e-10,7.75722e-10
297,29.7,1.91195,0.794024,-2.14523,-1.82541,0.112165,0.496729,-1,0.208298,0.000239001,-0.127635,-0.244839,-0.716422,1.10626e-09,-2.25619e-10,-2.62975e-13,1.38282e-10,2.69287e-10,7.86026e-10
298,29.8,1.81195,0.814854,-2.1452,-1.83817,0.0876812,0.425087,-1,0.208298,0.000239001,-0.127635,-0.244839,-0.716422,1.08287e-09,-2.25549e-10,-2.58805e-13,1.38209e-10,2.65133e-10,7.75854e-10
299,29.9,1.71195,0.835684,-2.14518,-1.85094,0.0631973,0.353445,-1,0.208298,0.000239001,-0.127635,-0.244839,-0.716422,1.08307e-09,-2.25559e-10,-2.58817e-13,1.38208e-10,2.65152e-10,7.75904e-10
300,30,1.61195,0.856513,-2.14516,-1.8637,0.0387134,0.281802,-1,0.208298,0.000239001,-0.127635,-0.244839,-0.716422,1.08291e-09,-2.25569e-10,-2.58799e-13,1.38207e-10,2.65141e-10,7.75831e-10
301,30.1,1.51195,0.877343,-2.14513,-1.87646,0.0142295,0.21016,-1,0.208298,0.000239001,-0.127635,-0.244839,-0.716422,1.08301e-09,-2.25581e-10,-2.58847e-13,1.38206e-10,2.65163e-10,7.75887e-10
302,30.2,1.41195,0.898173,-2.14511,-1.88923,-0.0102544,0.138518,-1,0.208298,0.000239001,-0.127635,-0.244839,-0.716422,1.08297e-09,-2.25558e-10,-2.58828e-13,1.38205e-10,2.65151e-10,7.75803e-10
303,30.3,1.31195,0.919003,-2.14509,-1.90199,-0.0347384,0.0668758,-1,0.208298,0.000239001,-0.127635,-0.244839,-0.716422,1.08293e-09,-2.25532e-10,-2.58807e-13,1.38204e-10,2.65137e-10,7.75864e-10
304,30.4,1.21195,0.939833,-2.14506,-1.91475,-0.0592223,-0.00476643,-1,0.208298,0.000239001,-0.127635,-0.244839,-0.716422,1.08305e-09,-2.25586e-10,-2.58824e-13,1.38202e-10,2.65164e-10,7.75935e-10
305,30.5,1.11195,0.960662,-2.14504,-1.92752,-0.0837062,-0.0764087,-1,0.208298,0.000239001,-0.127635,-0.244839,-0.716422,1.08301e-09,-2.25558e-10,-2.588e-13,1.38201e-10,2.65149e-10,7.75834e-10
306,30.6,1.01195,0.981492,-2.14501,-1.94028,-0.10819,-0.148051,-1,0.208298,0.000239001,-0.127635,-0.244839,-0.716422,1.08316e-09,-2.25574e-10,-2.58868e-13,1.38199e-10,2.65181e-10,7.75915e-10
307,30.7,0.911952,1.00232,-2.14499,-1.95304,-0.132674,-0.219693,-1,0.208298,0.000239001,-0.127635,-0.244839,-0.716422,1.08312e-09,-2.25539e-10,-2.58843e-13,1.38196e-10,2.65165e-10,7.75792e-10
308,30.8,0.811952,1.02315,-2.14497,-1.96581,-0.157158,-0.291335,-1,0.208298,0.000239001,-0.127635,-0.244839,-0.716422,1.08282e-09,-2.25557e-10,-2.58812e-13,1.38193e-10,2.65145e-10,7.75887e-10
309,30.9,0.711952,1.04398,-2.14494,-1.97857,-0.181642,-0.362978,-1,0.208298,0.000239001,-0.127635,-0.244839,-0.716422,1.08328e-09,-2.25579e-10,-2.5884e-13,1.3819e-10,2.6519e-10,7.76004e-10
310,31,0.611952,1.06481,-2.14492,-1.99134,-0.206126,-0.43462,-1,0.208298,0.000239001,-0.127635,-0.244839,-0.716422,1.08292e-09,-2.2553e-10,-2.588e-13,1.38185e-10,2.65168e-10,7.75842e-10
311,31.1,0.511952,1.08564,-2.14489,-2.0041,-0.23061,-0.506262,-1,0.208298,0.000239001,-0.127635,-0.244839,-0.716422,1.08281e-09,-2.25464e-10,-2.58747e-13,1.38179e-10,2.65139e-10,7.75626e-10
312,31.2,0.411952,1.10647,-2.14487,-2.01686,-0.255094,-0.577904,-1,0.208298,0.000239001,-0.127635,-0.244839,-0.716422,1.0831e-09,-2.25591e-10,-2.58779e-13,1.3817e-10,2.65208e-10,7.75761e-10
313,31.3,0.311952,1.1273,-2.14485,-2.02963,-0.279577,-0.649546,-1,0.208298,0.000239001,-0.127635,-0.244839,-0.716422,1.08298e-09,-2.25508e-10,-2.58695e-13,1.38157e-10,2.65175e-10,7.75963e-10
314,31.4,0.211952,1.14813,-2.14482,-2.04239,-0.304061,-0.721189,-1,0.208298,0.000239001,-0.127635,-0.244839,-0.716422,1.08351e-09,-2.2555e-10,-2.58907e-13,1.38136e-10,2.653e-10,7.76296e-10
315,31.5,0.111952,1.16896,-2.1448,-2.05515,-0.328545,-0.792831,-1,0.208298,0.000239001,-0.127635,-0.244839,-0.716422,1.08347e-09,-2.25368e-10,-2.58803e-13,1.38095e-10,2.6528e-10,7.75884e-10
316,31.6,0.0119524,1.18979,-2.14477,-2.06792,-0.353029,-0.864473,-1,0.208298,0.000239001,-0.127635,-0.244839,-0.716422,1.08133e-09,-2.25362e-10,-2.58506e-13,1.37977e-10,2.64711e-10,7.74713e-10
317,31.7,-0.0880476,1.21062,-2.14475,-2.08068,-0.377513,-0.936115,-1,0.208298,0.000239001,-0.127635,-0.244839,-0.716422,1.10672e-09,-2.25204e-10,-2.57628e-13,1.35123e-10,2.70245e-10,7.72129e-10
318,31.8,-0.188048,1.23145,-2.14473,-2.09344,-0.401997,-1.00776,-1,0.208298,0.000239001,-0.127635,-0.244839,-0.716422,1.08288e-09,-2.25547e-10,-2.58783e-13,1.38195e-10,2.65139e-10,7.75796e-10
319,31.9,-0.288048,1.25228,-2.1447,-2.10621,-0.426481,-1.0794,-1,0.208298,0.000239001,-0.127635,-0.244839,-0.716422,1.08297e-09,-2.25557e-10,-2.58824e-13,1.38224e-10,2.65159e-10,7.75844e-10
320,32,-0.388048,1.27311,-2.14468,-2.11897,-0.450965,-1.15104,-1,0.208298,0.000239001,-0.127635,-0.244839,-0.716422,1.08293e-09,-2.25567e-10,-2.58807e-13,1.38191e-10,2.65148e-10,7.75767e-10
321,32.1,-0.488048,1.29394,-2.14466,-2.13173,-0.475449,-1.22268,-1,0.208298,0.000239001,-0.127635,-0.244839,-0.716422,-6.01563e-09,1.25305e-09,1.43774e-12,-7.67818e-10,-1.47283e-09,-4.30963e-09
322,32.2,-0.588048,1.31477,-2.14463,-2.1445,-0.499933,-1.29433,-1,0.208298,0.000239001,-0.127635,-0.244839,-0.716422,-6.01551e-09,1.25306e-09,1.43775e-12,-7.67824e-10,-1.47284e-09,-4.30961e-09
323,32.3,-0.688048,1.3356,-2.14461,-2.15726,-0.524417,-1.36597,-1,0.208298,0.000239001,-0.127635,-0.244839,-0.716422,2.62617e-09,-5.47028e-10,-6.27658e-13,3.35163e-10,6.42997e-10,1.88142e-09
324,32.4,-0.788048,1.35643,-2.14458,-2.17002,-0.548901,-1.43761,-1,0.208298,0.000239001,-0.127635,-0.244839,-0.716422,2.62647e-09,-5.47046e-10,-6.27692e-13,3.35196e-10,6.43053e-10,1.88164e-09
325,32.5,-0.888048,1.37726,-2.14456,-2.18279,-0.573384,-1.50925,-1,0.208298,0.000239001,-0.127635,-0.244839,-0.716422,2.62626e-09,-5.47022e-10,-6.27687e-13,3.35189e-10,6.43026e-10,1.88154e-09
326,32.6,-0.988048,1.39809,-2.14454,-2.19555,-0.597868,-1.5809,-1,0.208298,0.000239001,-0.127635,-0.244839,-0.716422,2.62621e-09,-5.46994e-10,-6.27632e-13,3.3518e-10,6.42995e-10,1.88141e-09
327,32.7,-1.08805,1.41892,-2.14451,-2.20831,-0.622352,-1.65254,-1,0.208298,0.000239001,-0.127635,-0.244839,-0.716422,2.62637e-09,-5.47069e-10,-6.27727e-13,3.35224e-10,6.43067e-10,1.8817e-09
328,32.8,-1.18805,1.43975,-2.14449,-2.22108,-0.646836,-1.72418,-1,0.208298,0.000239001,-0.127635,-0.244839,-0.716422,2.62633e-09,-5.47039e-10,-6.27665e-13,3.35156e-10,6.43034e-10,1.88156e-09
329,32.9,-1.28805,1.46058,-2.14446,-2.23384,-0.67132,-1.79582,-1,0.208298,0.000239001,-0.127635,-0.244839,-0.716422,2.62627e-09,-5.47002e-10,-6.27654e-13,3.3514e-10,6.42992e-10,1.88139e-09
330,33,-1.38805,1.48141,-2.14444,-2.24661,-0.695804,-1.86746,-1,0.208298,0.000239001,-0.127635,-0.244839,-0.716422,2.62651e-09,-5.47033e-10,-6.27716e-13,3.35198e-10,6.43094e-10,1.8818e-09
331,33.1,-1.48805,1.50224,-2.14442,-2.25937,-0.720288,-1.93911,-1,0.208298,0.000239001,-0.127635,-0.244839,-0.716422,2.62646e-09,-5.47074e-10,-6.2771e-13,3.35183e-10,6.43048e-10,1.88161e-09
332,33.2,-1.58805,1.52307,-2.14439,-2.27213,-0.744772,-2.01075,-1,0.208298,0.000239001,-0.127635,-0.244839,-0.716422,2.6264e-09,-5.47021e-10,-6.27595e-13,3.35162e-10,6.42984e-10,1.88135e-09
333,33.3,-1.68805,1.5439,-2.14437,-2.2849,-0.769256,-2.08239,-1,0.208298,0.000239001,-0.127635,-0.244839,-0.716422,2.62685e-09,-5.47079e-10,-6.27821e-13,3.35267e-10,6.4316e-10,1.88205e-09
334,33.4,-1.78805,1.56473,-2.14434,-2.29766,-0.79374,-2.15403,-1,0.208298,0.000239001,-0.127635,-0.244839,-0.716422,2.62687e-09,-5.46995e-10,-6.27668e-13,3.35261e-10,6.43091e-10,1.88176e-09
335,33.5,-1.88805,1.58556,-2.14432,-2.31042,-0.818224,-2.22568,-1,0.208298,0.000239001,-0.127635,-0.244839,-0.716422,2.6269e-09,-5.4683e-10,-6.27628e-13,3.34983e-10,6.42956e-10,1.8812e-09
336,33.6,-1.98805,1.60639,-2.1443,-2.32319,-0.842708,-2.29732,-1,0.208298,0.000239001,-0.127635,-0.244839,-0.716422,2.62498e-09,-5.46872e-10,-6.27514e-13,3.34706e-10,6.43081e-10,1.88164e-09
337,33.7,-2.08805,1.62722,-2.14427,-2.33595,-0.867191,-2.36896,-1,0.208298,0.000239001,-0.127635,-0.244839,-0.716422,2.65239e-09,-5.47776e-10,-6.30663e-13,3.34431e-10,6.45799e-10,1.89127e-09
338,33.8,-2.18764,1.64796,-2.14425,-2.34866,-0.891576,-2.44031,-0.971478,0.202357,0.000232185,-0.123995,-0.237856,-0.695989,1,-0.208298,-0.000239001,0.127635,0.244839,0.716422
339,33.9,-2.27979,1.66715,-2.14423,-2.36042,-0.914137,-2.50633,-0.871478,0.181527,0.000208285,-0.111231,-0.213372,-0.624347,1,-0.208298,-0.000239001,0.127635,0.244839,0.716422
340,34,-2.36194,1.68427,-2.14421,-2.37091,-0.93425,-2.56518,-0.771478,0.160697,0.000184384,-0.0984676,-0.188888,-0.552704,1,-0.208298,-0.000239001,0.127635,0.244839,0.716422
341,34.1,-2.43408,1.69929,-2.14419,-2.38012,-0.951915,-2.61687,-0.671478,0.139868,0.000160484,-0.0857042,-0.164404,-0.481062,1,-0.208298,-0.000239001,0.127635,0.244839,0.716422
342,34.2,-2.49623,1.71224,-2.14418,-2.38805,-0.967131,-2.66139,-0.571478,0.119038,0.000136584,-0.0729407,-0.13992,-0.40942,1,-0.208298,-0.000239001,0.127635,0.244839,0.716422
343,34.3,-2.54838,1.7231,-2.14416,-2.3947,-0.979899,-2.69875,-0.471478,0.0982079,0.000112684,-0.0601772,-0.115436,-0.337778,1,-0.208298,-0.000239001,0.127635,0.244839,0.716422
344,34.4,-2.59053,1.73188,-2.14415,-2.40008,-0.990218,-2.72895,-0.371478,0.0773782,8.87839e-05,-0.0474137,-0.0909525,-0.266135,1,-0.208298,-0.000239001,0.127635,0.244839,0.716422
345,34.5,-2.62268,1.73858,-2.14415,-2.40419,-0.998089,-2.75198,-0.271478,0.0565484,6.48837e-05,-0.0346502,-0.0664686,-0.194493,1,-0.208298,-0.000239001,0.127635,0.244839,0.716422
346,34.6,-2.64482,1.74319,-2.14414,-2.40701,-1.00351,-2.76785,-0.171478,0.0357186,4.09836e-05,-0.0218867,-0.0419846,-0.122851,1,-0.208298,-0.000239001,0.127635,0.244839,0.716422
347,34.7,-2.65697,1.74572,-2.14414,-2.40856,-1.00649,-2.77655,-0.0714785,0.0148888,1.70835e-05,-0.00912316,-0.0175007,-0.0512088,1,-0.208298,-0.000239001,0.127635,0.244839,0.716422
348,34.8,-2.66113,1.74671,-2.14341,-2.40916,-1.00563,-2.77797,-0.0107028,0.00466831,0.0144632,-0.00258169,0.0345824,0.0233776,0.998495,-0.225841,-0.106113,0.136343,-0.0279135,0.488043
349,34.9,-2.65914,1.74666,-2.14124,-2.40909,-0.999638,-2.77191,0.0393154,-0.00195265,0.0382254,0.00141253,0.104793,0.108821,0.347073,-0.0161299,0.369145,0.00198622,0.942698,1.00011
350,35,-2.65357,1.74639,-2.13546,-2.40901,-0.984574,-2.75603,0.0709866,-0.00330951,0.0784348,-0.0004156,0.195034,0.208837,0.278527,-0.010856,0.441841,-0.0426704,0.852734,1.00017
351,35.1,-2.64522,1.74601,-2.12524,-2.40936,-0.961007,-2.73015,0.0943518,-0.00416605,0.127793,-0.00759348,0.273943,0.308859,0.172723,-0.0071978,0.55275,-0.106067,0.711052,1.00006
352,35.2,-2.63509,1.74555,-2.10949,-2.41075,-0.930326,-2.69426,0.105736,-0.00511038,0.1897,-0.0214016,0.336503,0.408881,0.0329885,-0.0140944,0.69283,-0.175623,0.52319,1.00019
353,35.3,-2.62457,1.74494,-2.0868,-2.41386,-0.894388,-2.64837,0.102073,-0.00767461,0.26664,-0.0418525,0.37855,0.508894,-0.130832,-0.0437613,0.852978,-0.236538,0.300653,1.00005
354,35.4,-2.61526,1.74388,-2.0556,-2.4193,-0.855398,-2.59248,0.0811813,-0.014514,0.360158,-0.0677611,0.397112,0.6086,-0.309585,-0.0989283,1.00047,-0.279249,0.0343664,0.955612
355,35.5,-2.60894,1.7418,-2.01458,-2.42744,-0.816089,-2.52726,0.0425001,-0.0284185,0.460204,-0.0948109,0.383533,0.691889,-0.461961,-0.179389,1.00029,-0.263368,-0.291568,0.718551
356,35.6,-2.60715,1.7379,-1.96365,-2.43817,-0.779602,-2.4549,-0.00786144,-0.0500346,0.547323,-0.11698,0.336339,0.73758,-0.518581,-0.185391,0.0968024,-0.0467459,-1.00128,-0.642684
357,35.7,-2.61009,1.7321,-1.90958,-2.4498,-0.750909,-2.38542,-0.0471905,-0.0646906,0.526469,-0.113705,0.239979,0.64635,-0.265819,-0.109743,-0.383952,0.0818642,-0.842795,-1.00007
358,35.8,-2.61592,1.72519,-1.85912,-2.46072,-0.730763,-2.32578,-0.0665701,-0.072341,0.479689,-0.104073,0.166812,0.546355,-0.102335,-0.0378702,-0.552386,0.119255,-0.61412,-0.991532
359,35.9,-2.62294,1.71788,-1.81417,-2.47051,-0.716895,-2.27615,-0.0716798,-0.0726259,0.416759,-0.091131,0.113408,0.44635,0.0236015,0.038144,-0.711343,0.151815,-0.445249,-1.00051
360,36,-2.62989,1.71092,-1.77624,-2.47884,-0.707597,-2.23651,-0.0658991,-0.0655164,0.339721,-0.0750559,0.0745816,0.346321,0.111917,0.10833,-0.839545,0.18055,-0.324393,-1.00053
361,36.1,-2.63585,1.705,-1.74663,-2.48542,-0.701629,-2.20688,-0.0521486,-0.0518077,0.250799,-0.0559893,0.0462064,0.246301,0.173008,0.167062,-0.943128,0.206882,-0.241341,-1.00045
362,36.2,-2.64015,1.70072,-1.72638,-2.48996,-0.698126,-2.18725,-0.0331491,-0.0329884,0.152973,-0.0344741,0.0247974,0.146442,0.205486,0.205014,-0.999744,0.222125,-0.187895,-0.986299
363,36.3,-2.6424,1.69848,-1.71608,-2.49229,-0.696508,-2.17745,-0.0116267,-0.0116119,0.0529818,-0.0119772,0.00815894,0.0502196,0.219448,0.219168,-1,0.226062,-0.153995,-0.947866
364,36.353,-2.6427,1.69817,-1.71468,-2.4926,-0.696291,-2.17612,5.99973e-16,5.99209e-16,-2.73402e-15,6.18058e-16,-4.21026e-16,-2.59148e-15,0.219448,0.219168,-1,0.226062,-0.153995,-0.947866
